; generated by PrusaSlicer 2.6.1+MacOS-arm64 on 2023-12-15 at 08:46:30 UTC


;
;
; 

; external perimeters extrusion width = 0.60mm
; perimeters extrusion width = 0.50mm
; infill extrusion width = 0.50mm
; solid infill extrusion width = 0.50mm
; top infill extrusion width = 0.45mm
; first layer extrusion width = 0.42mm

M73 P0 R45
M73 Q0 S46
M201 X1000 Y1000 Z200 E5000 ; sets maximum accelerations, mm/sec^2
M203 X200 Y200 Z12 E120 ; sets maximum feedrates, mm / sec
M204 S1250 T1250 ; sets acceleration (S) and retract acceleration (R), mm/sec^2
M205 X8.00 Y8.00 Z0.40 E4.50 ; sets the jerk limits, mm/sec
M205 S0 T0 ; sets the minimum extruding and travel feed rate, mm/sec
;TYPE:Custom
M862.3 P "MK3" ; printer model check
M862.1 P0.4 ; nozzle diameter check
M115 U3.12.2 ; tell printer latest fw version
G90 ; use absolute coordinates
M83 ; extruder relative mode
M104 S215 ; set extruder temp
M140 S60 ; set bed temp
M190 S60 ; wait for bed temp
M109 S215 ; wait for extruder temp
G28 W ; home all without mesh bed level
G80 ; mesh bed leveling

G1 Z0.2 F720
G1 Y-3 F1000 ; go outside print area
G92 E0
G1 X60 E9 F1000 ; intro line
G1 X100 E12.5 F1000 ; intro line

G92 E0
M221 S95

; Don't change E values below. Excessive value can damage the printer.

M907 E538 ; set extruder motor current
G21 ; set units to millimeters
G90 ; use absolute coordinates
M83 ; use relative distances for extrusion
M900 K0.05 ; Filament gcode LA 1.5
M900 K30 ; Filament gcode LA 1.0
M107
;LAYER_CHANGE
;Z:0.2
;HEIGHT:0.2
;BEFORE_LAYER_CHANGE
G92 E0.0
;0.2


G1 E-.8 F2100
G1 Z.4 F720
;AFTER_LAYER_CHANGE
;0.2
G1 X70.854 Y70.854 F10800
G1 Z.2 F720
G1 E.8 F2100
M204 S800
;TYPE:Skirt/Brim
;WIDTH:0.42
G1 F1200
G1 X72.513 Y69.196 E.07354
G1 X73.284 Y68.68 E.02909
G1 X75.159 Y67.904 E.06363
G1 X76.068 Y67.723 E.02906
G1 X173.932 Y67.723 E3.06846
G1 X174.841 Y67.904 E.02906
G1 X176.716 Y68.68 E.06363
G1 X177.487 Y69.196 E.02909
G1 X180.804 Y72.513 E.14708
G1 X181.32 Y73.284 E.02909
G1 X182.096 Y75.159 E.06363
G1 X182.277 Y76.068 E.02906
G1 X182.277 Y133.932 E1.81429
G1 X182.096 Y134.841 E.02906
G1 X181.32 Y136.716 E.06363
G1 X180.804 Y137.487 E.02909
G1 X177.487 Y140.804 E.14708
G1 X176.716 Y141.32 E.02909
G1 X174.841 Y142.096 E.06363
G1 X173.932 Y142.277 E.02906
G1 X76.068 Y142.277 E3.06846
G1 X75.159 Y142.096 E.02906
G1 X73.284 Y141.32 E.06363
G1 X72.513 Y140.804 E.02909
G1 X69.196 Y137.487 E.14708
G1 X68.68 Y136.716 E.02909
G1 X67.904 Y134.841 E.06363
G1 X67.723 Y133.932 E.02906
G1 X67.723 Y76.068 E1.81429
G1 X67.904 Y75.159 E.02906
G1 X68.68 Y73.284 E.06363
G1 X69.196 Y72.513 E.02909
G1 X70.812 Y70.897 E.07166
M204 S1000
;WIPE_START
G1 F8640
G1 X72.513 Y69.196 E-.55545
G1 X73.284 Y68.68 E-.21422
G1 X73.405 Y68.63 E-.03033
;WIPE_END
G1 Z.6 F720
G1 X72.727 Y72.772 F10800
G1 Z.2 F720
G1 E.8 F2100
M204 S800
G1 F1200
G1 X73.824 Y71.651 E.04918
G1 X74.539 Y71.096 E.02838
G1 X76.702 Y70.387 E.07137
G1 X173.25 Y70.39 E3.02719
G1 X174.562 Y70.675 E.0421
M73 P1 R45
M73 Q1 S45
G1 X175.748 Y71.305 E.04211
G1 X178.4 Y73.874 E.11577
G1 X179.243 Y75.23 E.05006
G1 X179.613 Y76.76 E.04935
G1 X179.613 Y133.235 E1.77073
G1 X179.299 Y134.633 E.04493
G1 X178.591 Y135.882 E.04502
G1 X176.176 Y138.349 E.10824
G1 X175.461 Y138.904 E.02838
G1 X173.298 Y139.613 E.07137
G1 X76.765 Y139.613 E3.02672
G1 X75.367 Y139.299 E.04493
G1 X74.118 Y138.591 E.04502
G1 X71.651 Y136.176 E.10824
G1 X71.096 Y135.461 E.02838
G1 X70.387 Y133.298 E.07137
G1 X70.387 Y76.765 E1.77255
G1 X70.701 Y75.367 E.04493
G1 X71.409 Y74.118 E.04502
G1 X72.685 Y72.815 E.05718
M204 S1000
G1 X72.952 Y73.077 F10800
M204 S800
G1 F1200
G1 X74.084 Y71.924 E.05066
G1 X74.744 Y71.414 E.02615
G1 X76.732 Y70.764 E.06558
G1 X173.229 Y70.767 E3.0256
G1 X174.455 Y71.038 E.03937
G1 X175.546 Y71.624 E.03883
G1 X178.121 Y74.129 E.11264
G1 X178.884 Y75.349 E.04512
G1 X179.236 Y76.783 E.0463
G1 X179.236 Y133.214 E1.76935
G1 X178.938 Y134.521 E.04203
G1 X178.276 Y135.673 E.04166
G1 X175.916 Y138.076 E.1056
G1 X175.256 Y138.586 E.02615
G1 X173.268 Y139.236 E.06558
G1 X76.786 Y139.236 E3.02513
G1 X75.479 Y138.938 E.04203
M73 P2 R44
M73 Q2 S45
G1 X74.327 Y138.276 E.04166
G1 X71.924 Y135.916 E.1056
G1 X71.414 Y135.256 E.02615
G1 X70.764 Y133.268 E.06558
G1 X70.764 Y76.786 E1.77095
G1 X71.062 Y75.479 E.04203
G1 X71.724 Y74.327 E.04166
G1 X72.91 Y73.12 E.05306
M204 S1000
G1 X73.176 Y73.382 F10800
M204 S800
G1 F1200
G1 X74.343 Y72.199 E.0521
G1 X74.949 Y71.732 E.02399
G1 X76.762 Y71.141 E.05979
G1 X173.209 Y71.144 E3.02403
G1 X174.3 Y71.382 E.03501
G1 X175.344 Y71.944 E.03718
G1 X177.841 Y74.382 E.10942
G1 X178.548 Y75.522 E.04206
G1 X178.859 Y76.805 E.04139
G1 X178.859 Y133.193 E1.76801
G1 X178.597 Y134.358 E.03744
G1 X177.962 Y135.464 E.03999
G1 X175.657 Y137.801 E.10292
G1 X175.051 Y138.268 E.02399
G1 X173.238 Y138.859 E.05979
G1 X76.807 Y138.859 E3.02353
G1 X75.642 Y138.597 E.03744
G1 X74.536 Y137.962 E.03999
G1 X72.199 Y135.657 E.10292
G1 X71.732 Y135.051 E.02399
G1 X71.141 Y133.238 E.05979
G1 X71.141 Y76.807 E1.76935
G1 X71.403 Y75.642 E.03744
G1 X72.038 Y74.536 E.03999
G1 X73.134 Y73.425 E.04893
M204 S1000
G1 X73.4 Y73.688 F10800
M204 S800
G1 F1200
G1 X74.602 Y72.473 E.05359
G1 X75.152 Y72.051 E.02174
G1 X76.791 Y71.518 E.05404
G1 X173.188 Y71.521 E3.02246
G1 X174.191 Y71.744 E.03222
G1 X175.14 Y72.262 E.0339
G1 X177.561 Y74.636 E.10631
G1 X178.189 Y75.642 E.03718
G1 X178.482 Y76.829 E.03833
G1 X178.482 Y133.171 E1.76656
G1 X178.236 Y134.245 E.03455
M73 P3 R44
M73 Q3 S45
G1 X177.648 Y135.253 E.03659
G1 X175.398 Y137.527 E.1003
G1 X174.848 Y137.949 E.02174
G1 X173.209 Y138.482 E.05404
G1 X76.829 Y138.482 E3.02193
G1 X75.755 Y138.236 E.03455
M73 Q3 S44
G1 X74.747 Y137.648 E.03659
G1 X72.473 Y135.398 E.1003
G1 X72.051 Y134.848 E.02174
G1 X71.518 Y133.209 E.05404
G1 X71.518 Y76.829 E1.76776
G1 X71.764 Y75.755 E.03455
G1 X72.352 Y74.747 E.03659
G1 X73.358 Y73.731 E.04483
M204 S1000
G1 X73.623 Y73.994 F10800
M204 S800
G1 F1200
G1 X74.86 Y72.748 E.05505
G1 X75.355 Y72.37 E.01953
G1 X76.821 Y71.895 E.04832
G1 X173.167 Y71.898 E3.02086
G1 X174.081 Y72.106 E.02939
G1 X174.934 Y72.579 E.03058
G1 X177.28 Y74.888 E.10321
G1 X177.852 Y75.814 E.03413
G1 X178.105 Y76.851 E.03347
G1 X178.105 Y133.149 E1.76518
G1 X177.876 Y134.13 E.03159
G1 X177.336 Y135.04 E.03318
G1 X175.14 Y137.252 E.09773
G1 X174.645 Y137.63 E.01953
G1 X173.179 Y138.105 E.04832
G1 X76.851 Y138.105 E3.0203
G1 X75.87 Y137.876 E.03159
G1 X74.96 Y137.336 E.03318
G1 X72.748 Y135.14 E.09773
G1 X72.37 Y134.645 E.01953
G1 X71.895 Y133.179 E.04832
G1 X71.895 Y76.851 E1.76612
G1 X72.125 Y75.87 E.03159
M73 P4 R44
G1 X72.664 Y74.96 E.03316
G1 X73.581 Y74.037 E.04079
M204 S1000
G1 X73.845 Y74.301 F10800
M204 S800
G1 F1200
G1 X75.118 Y73.024 E.05654
G1 X75.558 Y72.69 E.01732
G1 X76.85 Y72.272 E.04258
G1 X173.145 Y72.276 E3.01926
G1 X173.968 Y72.467 E.02649
M73 P4 R43
M73 Q4 S44
G1 X174.727 Y72.894 E.02731
G1 X176.999 Y75.141 E.10019
G1 X177.494 Y75.935 E.02934
G1 X177.728 Y76.874 E.03034
G1 X177.728 Y133.127 E1.76377
G1 X177.516 Y134.013 E.02856
G1 X177.026 Y134.825 E.02974
G1 X174.882 Y136.976 E.09522
G1 X174.442 Y137.31 E.01732
G1 X173.15 Y137.728 E.04258
G1 X76.874 Y137.728 E3.01867
G1 X75.987 Y137.516 E.02859
G1 X75.175 Y137.026 E.02974
G1 X73.024 Y134.882 E.09522
G1 X72.69 Y134.442 E.01732
G1 X72.272 Y133.15 E.04258
G1 X72.272 Y76.873 E1.76453
G1 X72.484 Y75.987 E.02856
G1 X72.974 Y75.175 E.02974
G1 X73.803 Y74.343 E.03683
M204 S1000
G1 X74.068 Y74.608 F10800
M204 S800
G1 F1200
G1 X75.375 Y73.3 E.05798
G1 X75.759 Y73.01 E.01509
G1 X76.88 Y72.649 E.03693
G1 X173.122 Y72.653 E3.0176
G1 X173.853 Y72.827 E.02356
G1 X174.517 Y73.208 E.024
G1 X176.717 Y75.392 E.0972
G1 X177.157 Y76.107 E.02632
G1 X177.351 Y76.897 E.02551
G1 X177.351 Y133.103 E1.7623
G1 X177.157 Y133.893 E.02551
G1 X176.717 Y134.608 E.02632
G1 X174.625 Y136.7 E.09276
G1 X174.241 Y136.99 E.01509
G1 X173.12 Y137.351 E.03693
G1 X76.897 Y137.351 E3.017
G1 X76.107 Y137.157 E.02551
M73 P5 R43
M73 Q5 S44
G1 X75.392 Y136.717 E.02632
G1 X73.3 Y134.625 E.09276
G1 X73.01 Y134.241 E.01509
G1 X72.649 Y133.12 E.03693
G1 X72.649 Y76.897 E1.76283
G1 X72.843 Y76.107 E.02551
G1 X73.283 Y75.392 E.02632
G1 X74.025 Y74.65 E.0329
M204 S1000
G1 X74.292 Y74.917 F10800
M204 S800
G1 F1200
G1 X75.632 Y73.577 E.05942
G1 X75.96 Y73.331 E.01286
G1 X76.909 Y73.026 E.03125
G1 X173.099 Y73.03 E3.01597
G1 X173.735 Y73.186 E.02053
M73 Q5 S43
G1 X174.304 Y73.521 E.0207
G1 X176.436 Y75.644 E.09434
G1 X176.799 Y76.229 E.02159
G1 X176.974 Y76.921 E.02238
G1 X176.974 Y133.079 E1.76079
G1 X176.799 Y133.771 E.02238
G1 X176.436 Y134.356 E.02159
G1 X174.368 Y136.423 E.09168
G1 X174.04 Y136.669 E.01286
G1 X173.091 Y136.974 E.03125
G1 X76.921 Y136.974 E3.01534
G1 X76.229 Y136.799 E.02238
G1 X75.644 Y136.436 E.02159
G1 X73.577 Y134.368 E.09168
G1 X73.331 Y134.04 E.01286
G1 X73.026 Y133.091 E.03125
G1 X73.026 Y76.921 E1.76117
G1 X73.201 Y76.229 E.02238
G1 X73.564 Y75.644 E.02159
G1 X74.249 Y74.959 E.03037
M204 S1000
G1 X74.516 Y75.226 F10800
M204 S800
G1 F1200
G1 X75.888 Y73.853 E.06086
G1 X76.159 Y73.653 E.01056
G1 X76.938 Y73.403 E.02565
G1 X173.074 Y73.407 E3.01428
G1 X173.613 Y73.544 E.01744
G1 X174.089 Y73.831 E.01743
G1 X176.153 Y75.894 E.0915
M73 P6 R43
G1 X176.462 Y76.4 E.01859
G1 X176.597 Y76.943 E.01754
G1 X176.597 Y133.057 E1.75942
G1 X176.462 Y133.6 E.01754
M73 Q6 S43
G1 X176.153 Y134.106 E.01859
G1 X174.112 Y136.147 E.0905
G1 X173.841 Y136.347 E.01056
G1 X173.062 Y136.597 E.02565
G1 X76.943 Y136.597 E3.01374
G1 X76.4 Y136.462 E.01754
M73 P6 R42
G1 X75.894 Y136.153 E.01859
G1 X73.853 Y134.112 E.0905
G1 X73.653 Y133.841 E.01056
G1 X73.403 Y133.062 E.02565
G1 X73.403 Y76.943 E1.75957
G1 X73.538 Y76.4 E.01754
G1 X73.847 Y75.894 E.01859
G1 X74.473 Y75.268 E.02776
M204 S1000
G1 X74.74 Y75.535 F10800
M204 S800
G1 F1200
G1 X76.144 Y74.131 E.06226
G1 X76.357 Y73.975 E.00828
G1 X76.967 Y73.78 E.02008
G1 X173.052 Y73.784 E3.01268
G1 X173.446 Y73.883 E.01274
G1 X173.84 Y74.115 E.01434
G1 X175.871 Y76.146 E.09006
G1 X176.105 Y76.523 E.01391
G1 X176.22 Y76.968 E.01441
G1 X176.22 Y133.032 E1.75785
G1 X176.105 Y133.477 E.01441
G1 X175.871 Y133.854 E.01391
G1 X173.856 Y135.869 E.08935
G1 X173.643 Y136.025 E.00828
G1 X173.033 Y136.22 E.02008
G1 X76.968 Y136.22 E3.01205
G1 X76.523 Y136.105 E.01441
G1 X76.146 Y135.871 E.01391
G1 X74.131 Y133.856 E.08935
G1 X73.975 Y133.643 E.00828
G1 X73.78 Y133.033 E.02008
G1 X73.78 Y76.968 E1.75788
G1 X73.895 Y76.523 E.01441
G1 X74.129 Y76.146 E.01391
G1 X74.698 Y75.577 E.02523
M204 S1000
G1 X74.964 Y75.844 F10800
M204 S800
G1 F1200
G1 X76.4 Y74.408 E.06367
G1 X76.552 Y74.299 E.00586
M73 P7 R42
G1 X76.996 Y74.157 E.01462
G1 X173.029 Y74.161 E3.01105
G1 X173.283 Y74.224 E.00821
M73 Q7 S43
G1 X173.592 Y74.4 E.01115
G1 X175.59 Y76.398 E.08859
G1 X175.749 Y76.651 E.00937
G1 X175.843 Y76.994 E.01115
G1 X175.843 Y133.006 E1.75622
G1 X175.749 Y133.349 E.01115
G1 X175.59 Y133.602 E.00937
G1 X173.6 Y135.592 E.08824
G1 X173.448 Y135.701 E.00586
G1 X173.004 Y135.843 E.01462
G1 X76.994 Y135.843 E3.01033
G1 X76.651 Y135.749 E.01115
G1 X76.398 Y135.59 E.00937
G1 X74.408 Y133.6 E.08824
G1 X74.299 Y133.448 E.00586
G1 X74.157 Y133.004 E.01462
G1 X74.157 Y76.994 E1.75615
G1 X74.251 Y76.651 E.01115
M73 Q7 S42
G1 X74.41 Y76.398 E.00937
G1 X74.922 Y75.886 E.0227
M204 S1000
G1 X75.189 Y76.153 F10800
M204 S800
G1 F1200
G1 X76.654 Y74.687 E.06498
G1 X76.744 Y74.624 E.00344
G1 X77.025 Y74.534 E.00925
G1 X173.007 Y74.538 E3.00945
G1 X173.126 Y74.567 E.00384
G1 X173.346 Y74.687 E.00786
G1 X175.31 Y76.651 E.08709
G1 X175.396 Y76.785 E.00499
G1 X175.466 Y77.023 E.00778
G1 X175.466 Y132.977 E1.7544
G1 X175.396 Y133.215 E.00778
G1 X175.31 Y133.349 E.00499
G1 X173.346 Y135.313 E.08709
G1 X173.256 Y135.376 E.00344
G1 X172.975 Y135.466 E.00925
G1 X77.023 Y135.466 E3.00851
G1 X76.785 Y135.396 E.00778
M73 P8 R42
G1 X76.651 Y135.31 E.00499
G1 X74.687 Y133.346 E.08709
G1 X74.624 Y133.256 E.00344
G1 X74.534 Y132.975 E.00925
G1 X74.534 Y77.023 E1.75434
G1 X74.604 Y76.785 E.00778
M73 Q8 S42
G1 X74.69 Y76.651 E.00499
G1 X75.146 Y76.195 E.02022
M204 S1000
G1 X75.413 Y76.462 F10800
M204 S800
G1 F1200
G1 X76.906 Y74.969 E.0662
G1 X77.056 Y74.911 E.00504
G1 X172.956 Y74.911 E3.00688
G1 X173.102 Y74.977 E.00502
G1 X175.031 Y76.906 E.08554
G1 X175.089 Y77.056 E.00504
G1 X175.089 Y132.944 E1.75233
G1 X175.048 Y133.069 E.00412
M73 P8 R41
G1 X173.094 Y135.031 E.08682
G1 X172.944 Y135.089 E.00504
G1 X77.056 Y135.089 E3.0065
G1 X76.931 Y135.048 E.00412
G1 X74.969 Y133.094 E.08682
G1 X74.911 Y132.944 E.00504
G1 X74.911 Y77.056 E1.75233
G1 X74.969 Y76.906 E.00504
G1 X75.37 Y76.504 E.0178
M204 S1000
; printing object Pedestrian Lights Bracket v0 id:0 copy 0
;WIPE_START
G1 F8640
G1 X76.906 Y74.969 E-.50141
G1 X77.056 Y74.911 E-.03713
G1 X78.188 Y74.911 E-.26146
;WIPE_END
G1 Z.6 F720
G1 X174.213 Y132.674 F10800
G1 Z.2 F720
G1 E.8 F2100
M204 S800
;TYPE:Perimeter
;WIDTH:0.419999
G1 F1200
G1 X172.674 Y134.213 E.06824
G1 X77.326 Y134.213 E2.98956
G1 X75.787 Y132.674 E.06824
G1 X75.787 Y77.326 E1.73539
G1 X77.326 Y75.787 E.06824
M73 P9 R41
G1 X172.674 Y75.787 E2.98956
G1 X174.213 Y77.326 E.06824
M73 Q9 S42
G1 X174.213 Y132.614 E1.73351
M204 S1000
G1 X174.59 Y132.83 F10800
M204 S800
;TYPE:External perimeter
G1 F1200
G1 X172.83 Y134.59 E.07804
G1 X77.17 Y134.59 E2.99935
G1 X75.41 Y132.83 E.07804
G1 X75.41 Y77.17 E1.74518
G1 X77.17 Y75.41 E.07804
G1 X172.83 Y75.41 E2.99935
G1 X174.59 Y77.17 E.07804
M73 Q9 S41
G1 X174.59 Y132.77 E1.7433
M204 S1000
G1 X174.19 Y132.834 F10800
;WIPE_START
G1 F8640
G1 X172.83 Y134.59 E-.5846
G1 X171.897 Y134.59 E-.2154
;WIPE_END
G1 Z.6 F720
G1 X148.449 Y103.268 F10800
G1 Z.2 F720
G1 E.8 F2100
M204 S800
;TYPE:Perimeter
G1 F1200
G1 X148.276 Y103.227 E.00557
G1 X148.076 Y103.061 E.00815
G1 X147.98 Y102.859 E.00701
G1 X147.963 Y102.721 E.00436
G1 X147.963 Y86.961 E.49414
G1 X148.016 Y86.723 E.00765
G1 X148.157 Y86.535 E.00737
G1 X148.868 Y85.916 E.02956
G1 X149.394 Y85.325 E.02481
G1 X149.841 Y84.671 E.02484
G1 X150.284 Y83.804 E.03053
G1 X150.431 Y83.622 E.00734
G1 X150.69 Y83.504 E.00892
G1 X151.15 Y83.498 E.01442
G1 X151.387 Y83.6 E.00809
G1 X151.544 Y83.777 E.00742
G1 X152.05 Y84.67 E.03218
G1 X152.564 Y85.33 E.02623
G1 X153.168 Y85.907 E.02619
G1 X153.851 Y86.39 E.02623
G1 X154.597 Y86.769 E.02624
G1 X155.39 Y87.034 E.02622
G1 X156.213 Y87.181 E.02621
G1 X157.049 Y87.205 E.02622
G1 X157.879 Y87.108 E.0262
G1 X158.686 Y86.89 E.02621
G1 X159.453 Y86.557 E.02622
G1 X160.163 Y86.115 E.02622
G1 X160.801 Y85.575 E.02621
G1 X161.353 Y84.947 E.02622
G1 X162.025 Y83.91 E.03874
G1 X162.213 Y83.73 E.00816
M73 P10 R41
G1 X162.5 Y83.652 E.00933
G1 X162.785 Y83.729 E.00926
G1 X162.974 Y83.909 E.00818
G1 X163.659 Y84.962 E.03939
G1 X164.227 Y85.602 E.02683
G1 X164.885 Y86.15 E.02685
G1 X165.617 Y86.593 E.02683
G1 X166.407 Y86.922 E.02683
G1 X167.237 Y87.129 E.02682
G1 X168.089 Y87.21 E.02683
G1 X168.944 Y87.162 E.02685
G1 X170.106 Y86.92 E.03722
G1 X170.294 Y86.912 E.0059
G1 X170.541 Y87.007 E.0083
G1 X170.663 Y87.12 E.00521
G1 X170.753 Y87.281 E.00578
G1 X170.787 Y87.473 E.00611
G1 X170.787 Y102.721 E.47809
G1 X170.757 Y102.905 E.00585
G1 X170.561 Y103.174 E.01044
G1 X170.42 Y103.251 E.00504
G1 X170.221 Y103.287 E.00634
G1 X148.508 Y103.282 E.68079
M204 S1000
G1 X148.529 Y102.91 F10800
M204 S800
;TYPE:External perimeter
G1 F1200
G1 X148.395 Y102.855 E.00454
G1 X148.34 Y102.721 E.00454
G1 X148.34 Y86.961 E.49414
G1 X148.405 Y86.819 E.0049
M73 Q10 S41
G1 X149.134 Y86.185 E.03029
G1 X149.692 Y85.557 E.02634
G1 X150.166 Y84.864 E.02632
G1 X150.619 Y83.975 E.03128
G1 X150.751 Y83.876 E.00517
G1 X151.139 Y83.888 E.01217
G1 X151.216 Y83.963 E.00337
G1 X151.735 Y84.88 E.03304
G1 X152.283 Y85.583 E.02795
G1 X152.928 Y86.199 E.02796
G1 X153.656 Y86.714 E.02796
G1 X154.451 Y87.117 E.02795
G1 X155.296 Y87.4 E.02794
G1 X156.174 Y87.557 E.02797
G1 X157.065 Y87.583 E.02795
G1 X157.951 Y87.479 E.02797
G1 X158.811 Y87.247 E.02793
G1 X159.629 Y86.892 E.02796
G1 X160.386 Y86.421 E.02795
G1 X161.066 Y85.844 E.02796
G1 X161.655 Y85.175 E.02795
G1 X162.341 Y84.115 E.03959
