; generated by PrusaSlicer 2.6.1+MacOS-arm64 on 2023-12-23 at 04:08:16 UTC


;
;
; 

; external perimeters extrusion width = 0.60mm
; perimeters extrusion width = 0.50mm
; infill extrusion width = 0.50mm
; solid infill extrusion width = 0.50mm
; top infill extrusion width = 0.45mm
; first layer extrusion width = 0.42mm

M73 P0 R41
M73 Q0 S42
M201 X1000 Y1000 Z200 E5000 ; sets maximum accelerations, mm/sec^2
M203 X200 Y200 Z12 E120 ; sets maximum feedrates, mm / sec
M204 S1250 T1250 ; sets acceleration (S) and retract acceleration (R), mm/sec^2
M205 X8.00 Y8.00 Z0.40 E4.50 ; sets the jerk limits, mm/sec
M205 S0 T0 ; sets the minimum extruding and travel feed rate, mm/sec
;TYPE:Custom
M862.3 P "MK3" ; printer model check
M862.1 P0.4 ; nozzle diameter check
M115 U3.12.2 ; tell printer latest fw version
G90 ; use absolute coordinates
M83 ; extruder relative mode
M104 S215 ; set extruder temp
M140 S60 ; set bed temp
M190 S60 ; wait for bed temp
M109 S215 ; wait for extruder temp
G28 W ; home all without mesh bed level
G80 ; mesh bed leveling

G1 Z0.2 F720
G1 Y-3 F1000 ; go outside print area
G92 E0
G1 X60 E9 F1000 ; intro line
G1 X100 E12.5 F1000 ; intro line

G92 E0
M221 S95

; Don't change E values below. Excessive value can damage the printer.

M907 E538 ; set extruder motor current
G21 ; set units to millimeters
G90 ; use absolute coordinates
M83 ; use relative distances for extrusion
M900 K0.05 ; Filament gcode LA 1.5
M900 K30 ; Filament gcode LA 1.0
M107
;LAYER_CHANGE
;Z:0.2
;HEIGHT:0.2
;BEFORE_LAYER_CHANGE
G92 E0.0
;0.2


G1 E-.8 F2100
G1 Z.4 F720
;AFTER_LAYER_CHANGE
;0.2
G1 X99.015 Y83.193 F10800
G1 Z.2 F720
G1 E.8 F2100
M204 S800
;TYPE:Skirt/Brim
;WIDTH:0.42
G1 F1200
G1 X100.06 Y82.317 E.04275
G1 X101 Y82.123 E.03009
G1 X149 Y82.123 E1.50501
G1 X150.307 Y82.515 E.04278
G1 X151.183 Y83.56 E.04275
G1 X151.377 Y84.5 E.03009
G1 X151.377 Y125.5 E1.28553
G1 X150.985 Y126.807 E.04278
G1 X149.94 Y127.683 E.04275
G1 X149 Y127.877 E.03009
G1 X101 Y127.877 E1.50501
G1 X99.693 Y127.485 E.04278
G1 X98.817 Y126.44 E.04275
G1 X98.623 Y125.5 E.03009
G1 X98.623 Y84.5 E1.28553
G1 X98.997 Y83.25 E.04091
M204 S1000
; printing object 240v5v Mount id:0 copy 0
;WIPE_START
G1 F8640
G1 X100.06 Y82.317 E-.32658
G1 X101 Y82.123 E-.22162
G1 X102.091 Y82.123 E-.2518
;WIPE_END
G1 Z.6 F720
G1 X148.213 Y124.713 F10800
G1 Z.2 F720
G1 E.8 F2100
M204 S800
;TYPE:Perimeter
;WIDTH:0.419999
M73 Q0 S41
G1 F1200
G1 X101.787 Y124.713 E1.45565
G1 X101.787 Y85.287 E1.23617
G1 X148.213 Y85.287 E1.45565
G1 X148.213 Y124.653 E1.23429
M204 S1000
G1 X148.59 Y125.09 F10800
M204 S800
;TYPE:External perimeter
M73 P1 R41
M73 Q1 S41
G1 F1200
G1 X101.41 Y125.09 E1.47929
G1 X101.41 Y84.91 E1.25981
G1 X148.59 Y84.91 E1.47929
G1 X148.59 Y125.03 E1.25793
M204 S1000
G1 X148.201 Y124.997 F10800
;WIPE_START
G1 F8640
G1 X145.125 Y125.034 E-.8
;WIPE_END
G1 Z.6 F720
G1 X147.277 Y85.457 F10800
G1 Z.2 F720
G1 E.8 F2100
M204 S800
;TYPE:Solid infill
;WIDTH:0.422037
G1 F1200
G1 X147.874 Y86.054 E.02662
G1 X147.874 Y86.59 E.0169
G1 X146.91 Y85.626 E.04298
G1 X146.374 Y85.626 E.0169
G1 X147.874 Y87.126 E.06687
G1 X147.874 Y87.662 E.0169
G1 X145.838 Y85.626 E.09077
G1 X145.302 Y85.626 E.0169
G1 X147.874 Y88.198 E.11466
G1 X147.874 Y88.734 E.0169
G1 X144.766 Y85.626 E.13856
G1 X144.229 Y85.626 E.01693
G1 X147.874 Y89.271 E.1625
G1 X147.874 Y89.807 E.0169
G1 X143.693 Y85.626 E.18639
G1 X143.157 Y85.626 E.0169
G1 X147.874 Y90.343 E.21029
G1 X147.874 Y90.879 E.0169
G1 X142.621 Y85.626 E.23419
G1 X142.085 Y85.626 E.0169
G1 X147.874 Y91.415 E.25808
G1 X147.874 Y91.951 E.0169
G1 X141.549 Y85.626 E.28198
G1 X141.013 Y85.626 E.0169
G1 X147.874 Y92.487 E.30587
G1 X147.874 Y93.024 E.01693
G1 X140.476 Y85.626 E.32981
G1 X139.94 Y85.626 E.0169
G1 X147.874 Y93.56 E.35371
G1 X147.874 Y94.096 E.0169
G1 X139.404 Y85.626 E.3776
G1 X138.868 Y85.626 E.0169
G1 X147.874 Y94.632 E.4015
G1 X147.874 Y95.168 E.0169
G1 X138.332 Y85.626 E.42539
G1 X137.796 Y85.626 E.0169
G1 X147.874 Y95.704 E.44929
G1 X147.874 Y96.241 E.01693
G1 X137.259 Y85.626 E.47323
G1 X136.723 Y85.626 E.0169
G1 X147.874 Y96.777 E.49713
G1 X147.874 Y97.313 E.0169
G1 X136.187 Y85.626 E.52102
G1 X135.651 Y85.626 E.0169
G1 X147.874 Y97.849 E.54492
G1 X147.874 Y98.385 E.0169
G1 X135.115 Y85.626 E.56881
G1 X134.579 Y85.626 E.0169
G1 X147.874 Y98.921 E.59271
G1 X147.874 Y99.457 E.0169
G1 X134.043 Y85.626 E.6166
G1 X133.506 Y85.626 E.01693
G1 X147.874 Y99.994 E.64054
G1 X147.874 Y100.53 E.0169
M73 P2 R41
M73 Q2 S41
G1 X132.97 Y85.626 E.66444
G1 X132.434 Y85.626 E.0169
G1 X147.874 Y101.066 E.68833
G1 X147.874 Y101.602 E.0169
G1 X131.898 Y85.626 E.71223
G1 X131.362 Y85.626 E.0169
G1 X147.874 Y102.138 E.73613
G1 X147.874 Y102.674 E.0169
G1 X130.826 Y85.626 E.76002
G1 X130.289 Y85.626 E.01693
G1 X147.874 Y103.211 E.78396
G1 X147.874 Y103.747 E.0169
G1 X129.753 Y85.626 E.80786
G1 X129.217 Y85.626 E.0169
M73 P2 R40
G1 X147.874 Y104.283 E.83175
G1 X147.874 Y104.819 E.0169
G1 X128.681 Y85.626 E.85565
G1 X128.145 Y85.626 E.0169
G1 X147.874 Y105.355 E.87954
G1 X147.874 Y105.891 E.0169
G1 X127.609 Y85.626 E.90344
G1 X127.073 Y85.626 E.0169
G1 X147.874 Y106.427 E.92733
G1 X147.874 Y106.964 E.01693
G1 X126.536 Y85.626 E.95127
G1 X126 Y85.626 E.0169
G1 X147.874 Y107.5 E.97517
G1 X147.874 Y108.036 E.0169
G1 X125.464 Y85.626 E.99907
G1 X124.928 Y85.626 E.0169
G1 X147.874 Y108.572 E1.02296
G1 X147.874 Y109.108 E.0169
G1 X124.392 Y85.626 E1.04686
G1 X123.856 Y85.626 E.0169
G1 X147.874 Y109.644 E1.07075
G1 X147.874 Y110.181 E.01693
M73 P3 R40
M73 Q3 S41
G1 X123.319 Y85.626 E1.09469
G1 X122.783 Y85.626 E.0169
M73 Q3 S40
G1 X147.874 Y110.717 E1.11859
G1 X147.874 Y111.253 E.0169
G1 X122.247 Y85.626 E1.14248
G1 X121.711 Y85.626 E.0169
G1 X147.874 Y111.789 E1.16638
G1 X147.874 Y112.325 E.0169
G1 X121.175 Y85.626 E1.19027
G1 X120.639 Y85.626 E.0169
G1 X147.874 Y112.861 E1.21417
G1 X147.874 Y113.397 E.0169
G1 X120.103 Y85.626 E1.23807
G1 X119.566 Y85.626 E.01693
G1 X147.874 Y113.934 E1.26201
G1 X147.874 Y114.47 E.0169
G1 X119.03 Y85.626 E1.2859
G1 X118.494 Y85.626 E.0169
G1 X147.874 Y115.006 E1.3098
G1 X147.874 Y115.542 E.0169
G1 X117.958 Y85.626 E1.33369
G1 X117.422 Y85.626 E.0169
G1 X147.874 Y116.078 E1.35759
G1 X147.874 Y116.614 E.0169
G1 X116.886 Y85.626 E1.38148
G1 X116.349 Y85.626 E.01693
M73 P4 R40
M73 Q4 S40
G1 X147.874 Y117.151 E1.40542
G1 X147.874 Y117.687 E.0169
G1 X115.813 Y85.626 E1.42932
G1 X115.277 Y85.626 E.0169
G1 X147.874 Y118.223 E1.45322
G1 X147.874 Y118.759 E.0169
G1 X114.741 Y85.626 E1.47711
G1 X114.205 Y85.626 E.0169
G1 X147.874 Y119.295 E1.50101
G1 X147.874 Y119.831 E.0169
G1 X113.669 Y85.626 E1.5249
G1 X113.133 Y85.626 E.0169
G1 X147.874 Y120.367 E1.5488
G1 X147.874 Y120.904 E.01693
M73 P4 R39
G1 X112.596 Y85.626 E1.57274
G1 X112.06 Y85.626 E.0169
G1 X147.874 Y121.44 E1.59663
G1 X147.874 Y121.976 E.0169
G1 X111.524 Y85.626 E1.62053
G1 X110.988 Y85.626 E.0169
M73 P5 R39
M73 Q5 S40
G1 X147.874 Y122.512 E1.64442
G1 X147.874 Y123.048 E.0169
G1 X110.452 Y85.626 E1.66832
G1 X109.916 Y85.626 E.0169
G1 X147.874 Y123.584 E1.69222
G1 X147.874 Y124.12 E.0169
G1 X109.38 Y85.626 E1.71611
G1 X108.843 Y85.626 E.01693
M73 Q5 S39
G1 X147.59 Y124.374 E1.72741
G1 X147.054 Y124.374 E.0169
G1 X108.307 Y85.626 E1.72741
G1 X107.771 Y85.626 E.0169
G1 X146.518 Y124.374 E1.72741
G1 X145.982 Y124.374 E.0169
G1 X107.235 Y85.626 E1.72741
G1 X106.699 Y85.626 E.0169
G1 X145.446 Y124.374 E1.72741
G1 X144.91 Y124.374 E.0169
M73 P6 R39
G1 X106.163 Y85.626 E1.72741
G1 X105.626 Y85.626 E.01693
M73 Q6 S39
G1 X144.374 Y124.374 E1.72743
G1 X143.837 Y124.374 E.01693
G1 X105.09 Y85.626 E1.72741
G1 X104.554 Y85.626 E.0169
G1 X143.301 Y124.374 E1.72741
G1 X142.765 Y124.374 E.0169
G1 X104.018 Y85.626 E1.72741
G1 X103.482 Y85.626 E.0169
G1 X142.229 Y124.374 E1.72741
G1 X141.693 Y124.374 E.0169
G1 X102.946 Y85.626 E1.72741
G1 X102.41 Y85.626 E.0169
G1 X141.157 Y124.374 E1.72741
G1 X140.62 Y124.374 E.01693
G1 X102.126 Y85.88 E1.71611
G1 X102.126 Y86.416 E.0169
M73 P7 R39
G1 X140.084 Y124.374 E1.69222
G1 X139.548 Y124.374 E.0169
M73 P7 R38
M73 Q7 S39
G1 X102.126 Y86.952 E1.66832
G1 X102.126 Y87.488 E.0169
G1 X139.012 Y124.374 E1.64442
G1 X138.476 Y124.374 E.0169
G1 X102.126 Y88.024 E1.62053
G1 X102.126 Y88.56 E.0169
G1 X137.94 Y124.374 E1.59663
G1 X137.404 Y124.374 E.0169
G1 X102.126 Y89.096 E1.57274
G1 X102.126 Y89.633 E.01693
G1 X136.867 Y124.374 E1.5488
G1 X136.331 Y124.374 E.0169
G1 X102.126 Y90.169 E1.5249
G1 X102.126 Y90.705 E.0169
G1 X135.795 Y124.374 E1.50101
G1 X135.259 Y124.374 E.0169
M73 Q7 S38
G1 X102.126 Y91.241 E1.47711
G1 X102.126 Y91.777 E.0169
M73 P8 R38
G1 X134.723 Y124.374 E1.45322
G1 X134.187 Y124.374 E.0169
M73 Q8 S38
G1 X102.126 Y92.313 E1.42932
G1 X102.126 Y92.85 E.01693
G1 X133.651 Y124.374 E1.4054
G1 X133.114 Y124.374 E.01693
G1 X102.126 Y93.386 E1.38148
G1 X102.126 Y93.922 E.0169
G1 X132.578 Y124.374 E1.35759
G1 X132.042 Y124.374 E.0169
G1 X102.126 Y94.458 E1.33369
G1 X102.126 Y94.994 E.0169
G1 X131.506 Y124.374 E1.3098
G1 X130.97 Y124.374 E.0169
G1 X102.126 Y95.53 E1.2859
G1 X102.126 Y96.066 E.0169
G1 X130.434 Y124.374 E1.26201
G1 X129.897 Y124.374 E.01693
G1 X102.126 Y96.603 E1.23807
G1 X102.126 Y97.139 E.0169
G1 X129.361 Y124.374 E1.21417
G1 X128.825 Y124.374 E.0169
G1 X102.126 Y97.675 E1.19027
G1 X102.126 Y98.211 E.0169
M73 P9 R38
G1 X128.289 Y124.374 E1.16638
G1 X127.753 Y124.374 E.0169
M73 Q9 S38
G1 X102.126 Y98.747 E1.14248
G1 X102.126 Y99.283 E.0169
G1 X127.217 Y124.374 E1.11859
G1 X126.681 Y124.374 E.0169
G1 X102.126 Y99.819 E1.09469
G1 X102.126 Y100.356 E.01693
G1 X126.144 Y124.374 E1.07075
G1 X125.608 Y124.374 E.0169
G1 X102.126 Y100.892 E1.04686
G1 X102.126 Y101.428 E.0169
M73 P9 R37
G1 X125.072 Y124.374 E1.02296
G1 X124.536 Y124.374 E.0169
G1 X102.126 Y101.964 E.99907
G1 X102.126 Y102.5 E.0169
G1 X124 Y124.374 E.97517
G1 X123.464 Y124.374 E.0169
G1 X102.126 Y103.036 E.95127
G1 X102.126 Y103.573 E.01693
G1 X122.927 Y124.374 E.92733
G1 X122.391 Y124.374 E.0169
G1 X102.126 Y104.109 E.90344
G1 X102.126 Y104.645 E.0169
G1 X121.855 Y124.374 E.87954
G1 X121.319 Y124.374 E.0169
G1 X102.126 Y105.181 E.85565
G1 X102.126 Y105.717 E.0169
G1 X120.783 Y124.374 E.83175
G1 X120.247 Y124.374 E.0169
M73 P10 R37
G1 X102.126 Y106.253 E.80786
G1 X102.126 Y106.789 E.0169
M73 Q10 S38
G1 X119.711 Y124.374 E.78396
G1 X119.174 Y124.374 E.01693
G1 X102.126 Y107.326 E.76002
G1 X102.126 Y107.862 E.0169
G1 X118.638 Y124.374 E.73613
G1 X118.102 Y124.374 E.0169
G1 X102.126 Y108.398 E.71223
G1 X102.126 Y108.934 E.0169
M73 Q10 S37
G1 X117.566 Y124.374 E.68833
G1 X117.03 Y124.374 E.0169
G1 X102.126 Y109.47 E.66444
G1 X102.126 Y110.006 E.0169
G1 X116.494 Y124.374 E.64054
G1 X115.957 Y124.374 E.01693
G1 X102.126 Y110.543 E.6166
G1 X102.126 Y111.079 E.0169
G1 X115.421 Y124.374 E.59271
G1 X114.885 Y124.374 E.0169
G1 X102.126 Y111.615 E.56881
G1 X102.126 Y112.151 E.0169
G1 X114.349 Y124.374 E.54492
G1 X113.813 Y124.374 E.0169
G1 X102.126 Y112.687 E.52102
G1 X102.126 Y113.223 E.0169
G1 X113.277 Y124.374 E.49713
G1 X112.741 Y124.374 E.0169
G1 X102.126 Y113.759 E.47323
G1 X102.126 Y114.296 E.01693
G1 X112.204 Y124.374 E.44929
G1 X111.668 Y124.374 E.0169
G1 X102.126 Y114.832 E.42539
G1 X102.126 Y115.368 E.0169
G1 X111.132 Y124.374 E.4015
G1 X110.596 Y124.374 E.0169
G1 X102.126 Y115.904 E.3776
G1 X102.126 Y116.44 E.0169
G1 X110.06 Y124.374 E.35371
G1 X109.524 Y124.374 E.0169
G1 X102.126 Y116.976 E.32981
G1 X102.126 Y117.513 E.01693
G1 X108.987 Y124.374 E.30587
G1 X108.451 Y124.374 E.0169
G1 X102.126 Y118.049 E.28198
G1 X102.126 Y118.585 E.0169
G1 X107.915 Y124.374 E.25808
G1 X107.379 Y124.374 E.0169
G1 X102.126 Y119.121 E.23419
G1 X102.126 Y119.657 E.0169
G1 X106.843 Y124.374 E.21029
G1 X106.307 Y124.374 E.0169
G1 X102.126 Y120.193 E.18639
G1 X102.126 Y120.729 E.0169
G1 X105.771 Y124.374 E.1625
G1 X105.234 Y124.374 E.01693
G1 X102.126 Y121.266 E.13856
G1 X102.126 Y121.802 E.0169
G1 X104.698 Y124.374 E.11466
G1 X104.162 Y124.374 E.0169
G1 X102.126 Y122.338 E.09077
G1 X102.126 Y122.874 E.0169
G1 X103.626 Y124.374 E.06687
G1 X103.09 Y124.374 E.0169
G1 X102.126 Y123.41 E.04298
G1 X102.126 Y123.946 E.0169
G1 X102.723 Y124.543 E.02662
M204 S1000
; stop printing object 240v5v Mount id:0 copy 0
M106 S84.15
;LAYER_CHANGE
;Z:0.5
;HEIGHT:0.3
;BEFORE_LAYER_CHANGE
G92 E0.0
;0.5


;WIPE_START
G1 F8640
G1 X102.126 Y123.946 E-.19495
G1 X102.126 Y123.41 E-.12376
G1 X103.09 Y124.374 E-.31479
G1 X103.626 Y124.374 E-.12376
G1 X103.495 Y124.243 E-.04274
;WIPE_END
G1 Z.6 F720
;AFTER_LAYER_CHANGE
;0.5
M104 S210 ; set temperature
G1 X103.495 Y127.877 F10800
G1 Z.5 F720
G1 E.8 F2100
;TYPE:Skirt/Brim
;WIDTH:0.42
G1 F2700
G1 X101 Y127.877 E.11067
G1 X99.693 Y127.485 E.06052
G1 X98.817 Y126.44 E.06048
G1 X98.623 Y125.5 E.04257
G1 X98.623 Y84.5 E1.81855
G1 X99.015 Y83.193 E.06052
M73 P11 R37
G1 X100.06 Y82.317 E.06048
G1 X101 Y82.123 E.04257
G1 X149 Y82.123 E2.12903
G1 X150.307 Y82.515 E.06052
G1 X151.183 Y83.56 E.06048
G1 X151.377 Y84.5 E.04257
G1 X151.377 Y125.5 E1.81855
M73 Q11 S37
G1 X150.985 Y126.807 E.06052
G1 X149.94 Y127.683 E.06048
G1 X149 Y127.877 E.04257
G1 X103.555 Y127.877 E2.0157
; printing object 240v5v Mount id:0 copy 0
;WIPE_START
G1 F8640
G1 X101 Y127.877 E-.58996
G1 X100.129 Y127.616 E-.21004
;WIPE_END
G1 Z.9 F720
G1 X148.214 Y124.714 F10800
G1 Z.5 F720
G1 E.8 F2100
M204 S800
;TYPE:Perimeter
;WIDTH:0.5
G1 F3000
G1 X101.786 Y124.714 E2.52256
G1 X101.786 Y85.286 E2.14223
G1 X148.214 Y85.286 E2.52256
G1 X148.214 Y124.654 E2.13897
M204 S1000
G1 X148.7 Y125.2 F10800
M204 S800
;TYPE:External perimeter
;WIDTH:0.6
G1 F2099.997

G1 X148.1 Y125.2 E.04008
G1 X101.9 Y125.2 E3.08641
G1 X101.3 Y125.2 E.04008
G1 X101.3 Y124.6 E.04008
G1 X101.3 Y85.4 E2.61877
G1 X101.3 Y84.8 E.04008
G1 X101.9 Y84.8 E.04008
G1 X148.1 Y84.8 E3.08641
G1 X148.7 Y84.8 E.04008
G1 X148.7 Y85.4 E.04008
G1 X148.7 Y124.54 E2.61476
G1 X148.7 Y125.14 E.04008

M204 S1000
G1 X148.311 Y125.107 F10800
;WIPE_START
G1 F8640
G1 X145.235 Y125.144 E-.8
;WIPE_END
G1 Z.9 F720
G1 X102.296 Y85.713 F10800
G1 Z.5 F720
G1 E.8 F2100
;TYPE:Solid infill
;WIDTH:0.605691
G1 F4800
G1 X102.248 Y85.665 E.00458
G1 X102.183 Y85.683 E.00455
G1 X102.165 Y85.748 E.00455
G1 X102.213 Y85.796 E.00458
G1 X102.278 Y85.778 E.00455
;WIDTH:0.5
G1 X102.178 Y86.474 E.0382
G1 X102.974 Y85.678 E.06116
G1 X103.59 Y85.678 E.03347
G1 X102.178 Y87.09 E.1085
G1 X102.178 Y87.706 E.03347
G1 X104.206 Y85.678 E.15583
G1 X104.822 Y85.678 E.03347
G1 X102.178 Y88.322 E.20316
G1 X102.178 Y88.938 E.03347
G1 X105.438 Y85.678 E.25049
G1 X106.054 Y85.678 E.03347
G1 X102.178 Y89.554 E.29782
G1 X102.178 Y90.171 E.03352
G1 X106.671 Y85.678 E.34523
G1 X107.287 Y85.678 E.03347
G1 X102.178 Y90.787 E.39257
G1 X102.178 Y91.403 E.03347
G1 X107.903 Y85.678 E.4399
G1 X108.519 Y85.678 E.03347
G1 X102.178 Y92.019 E.48723
G1 X102.178 Y92.635 E.03347
G1 X109.135 Y85.678 E.53456
G1 X109.751 Y85.678 E.03347
G1 X102.178 Y93.251 E.5819
G1 X102.178 Y93.867 E.03347
G1 X110.367 Y85.678 E.62923
G1 X110.983 Y85.678 E.03347
G1 X102.178 Y94.483 E.67656
G1 X102.178 Y95.099 E.03347
G1 X111.599 Y85.678 E.72389
G1 X112.215 Y85.678 E.03347
G1 X102.178 Y95.715 E.77122
G1 X102.178 Y96.331 E.03347
G1 X112.831 Y85.678 E.81856
G1 X113.447 Y85.678 E.03347
G1 X102.178 Y96.947 E.86589
G1 X102.178 Y97.563 E.03347
G1 X114.063 Y85.678 E.91322
G1 X114.679 Y85.678 E.03347
G1 X102.178 Y98.179 E.96055
G1 X102.178 Y98.795 E.03347
G1 X115.295 Y85.678 E1.00789
G1 X115.911 Y85.678 E.03347
G1 X102.178 Y99.411 E1.05522
G1 X102.178 Y100.027 E.03347
G1 X116.527 Y85.678 E1.10255
G1 X117.144 Y85.678 E.03352
G1 X102.178 Y100.644 E1.14996
G1 X102.178 Y101.26 E.03347
G1 X117.76 Y85.678 E1.19729
G1 X118.376 Y85.678 E.03347
G1 X102.178 Y101.876 E1.24462
G1 X102.178 Y102.492 E.03347
G1 X118.992 Y85.678 E1.29196
G1 X119.608 Y85.678 E.03347
G1 X102.178 Y103.108 E1.33929
G1 X102.178 Y103.724 E.03347
G1 X120.224 Y85.678 E1.38662
G1 X120.84 Y85.678 E.03347
M73 P11 R36
G1 X102.178 Y104.34 E1.43395
G1 X102.178 Y104.956 E.03347
G1 X121.456 Y85.678 E1.48129
G1 X122.072 Y85.678 E.03347
G1 X102.178 Y105.572 E1.52862
G1 X102.178 Y106.188 E.03347
