; generated by PrusaSlicer 2.6.1+MacOS-arm64 on 2023-12-23 at 05:57:40 UTC


;
;
; 

; external perimeters extrusion width = 0.60mm
; perimeters extrusion width = 0.50mm
; infill extrusion width = 0.50mm
; solid infill extrusion width = 0.50mm
; top infill extrusion width = 0.45mm
; first layer extrusion width = 0.42mm

M73 P0 R28
M73 Q0 S28
M201 X1000 Y1000 Z200 E5000 ; sets maximum accelerations, mm/sec^2
M203 X200 Y200 Z12 E120 ; sets maximum feedrates, mm / sec
M204 S1250 T1250 ; sets acceleration (S) and retract acceleration (R), mm/sec^2
M205 X8.00 Y8.00 Z0.40 E4.50 ; sets the jerk limits, mm/sec
M205 S0 T0 ; sets the minimum extruding and travel feed rate, mm/sec
;TYPE:Custom
M862.3 P "MK3" ; printer model check
M862.1 P0.4 ; nozzle diameter check
M115 U3.12.2 ; tell printer latest fw version
G90 ; use absolute coordinates
M83 ; extruder relative mode
M104 S215 ; set extruder temp
M140 S60 ; set bed temp
M190 S60 ; wait for bed temp
M109 S215 ; wait for extruder temp
G28 W ; home all without mesh bed level
G80 ; mesh bed leveling

G1 Z0.2 F720
G1 Y-3 F1000 ; go outside print area
G92 E0
G1 X60 E9 F1000 ; intro line
G1 X100 E12.5 F1000 ; intro line

G92 E0
M221 S95

; Don't change E values below. Excessive value can damage the printer.

M907 E538 ; set extruder motor current
G21 ; set units to millimeters
G90 ; use absolute coordinates
M83 ; use relative distances for extrusion
M900 K0.05 ; Filament gcode LA 1.5
M900 K30 ; Filament gcode LA 1.0
M107
;LAYER_CHANGE
;Z:0.2
;HEIGHT:0.2
;BEFORE_LAYER_CHANGE
G92 E0.0
;0.2


G1 E-.8 F2100
G1 Z.4 F720
;AFTER_LAYER_CHANGE
;0.2
G1 X109.515 Y74.693 F10800
G1 Z.2 F720
G1 E.8 F2100
M204 S800
;TYPE:Skirt/Brim
;WIDTH:0.42
G1 F1200
G1 X110.56 Y73.817 E.04275
G1 X111.5 Y73.623 E.03009
G1 X138.5 Y73.623 E.84657
G1 X139.807 Y74.015 E.04278
G1 X140.683 Y75.06 E.04275
G1 X140.877 Y76 E.03009
G1 X140.877 Y134 E1.81855
G1 X140.485 Y135.307 E.04278
G1 X139.44 Y136.183 E.04275
G1 X138.5 Y136.377 E.03009
G1 X111.5 Y136.377 E.84657
G1 X110.193 Y135.985 E.04278
G1 X109.317 Y134.94 E.04275
G1 X109.123 Y134 E.03009
G1 X109.123 Y76 E1.81855
G1 X109.497 Y74.75 E.04091
M204 S1000
; printing object PicoW Mount id:0 copy 0
;WIPE_START
G1 F8640
G1 X110.56 Y73.817 E-.32658
G1 X111.5 Y73.623 E-.22162
G1 X112.591 Y73.623 E-.2518
;WIPE_END
G1 Z.6 F720
G1 X131.482 Y130.726 F10800
G1 Z.2 F720
M73 Q1 S28
G1 E.8 F2100
M204 S800
;TYPE:Perimeter
;WIDTH:0.419999
M73 P1 R28
G1 F1200
G1 X131.477 Y130.67 E.00176
G1 X131.38 Y130.448 E.0076
G1 X131.143 Y130.258 E.00952
G1 X130.921 Y130.213 E.0071
G1 X119.079 Y130.213 E.3713
G1 X118.937 Y130.231 E.00449
G1 X118.693 Y130.364 E.00871
G1 X118.561 Y130.551 E.00718
G1 X118.513 Y130.779 E.00731
G1 X118.513 Y133.213 E.07632
G1 X112.287 Y133.213 E.19521
G1 X112.287 Y76.787 E1.76919
G1 X137.713 Y76.787 E.79721
G1 X137.713 Y133.213 E1.76919
G1 X131.487 Y133.213 E.19521
M73 P1 R27
G1 X131.487 Y130.786 E.0761
M204 S1000
G1 X131.11 Y130.779 F10800
M204 S800
;TYPE:External perimeter
G1 F1200
G1 X131.05 Y130.64 E.00475
G1 X130.921 Y130.59 E.00434
G1 X119.079 Y130.59 E.3713
G1 X118.95 Y130.64 E.00434
G1 X118.89 Y130.779 E.00475
G1 X118.89 Y133.59 E.08814
G1 X111.91 Y133.59 E.21885
G1 X111.91 Y76.41 E1.79284
G1 X138.09 Y76.41 E.82085
G1 X138.09 Y133.59 E1.79284
G1 X131.11 Y133.59 E.21885
G1 X131.11 Y130.839 E.08626
M204 S1000
M73 P2 R27
M73 Q2 S28
G1 X131.165 Y130.639 F10800
;WIPE_START
G1 F8640
G1 X131.05 Y130.64 E-.04799
G1 X130.921 Y130.59 E-.03195
G1 X127.803 Y130.59 E-.72006
;WIPE_END
G1 Z.6 F720
G1 X136.779 Y76.957 F10800
G1 Z.2 F720
G1 E.8 F2100
M204 S800
;TYPE:Solid infill
;WIDTH:0.420888
G1 F1200
G1 X137.374 Y77.551 E.02642
G1 X137.374 Y78.086 E.01681
G1 X136.414 Y77.126 E.04267
G1 X135.88 Y77.126 E.01678
G1 X137.374 Y78.62 E.0664
G1 X137.374 Y79.155 E.01681
G1 X135.345 Y77.126 E.09018
G1 X134.811 Y77.126 E.01678
G1 X137.374 Y79.689 E.11392
G1 X137.374 Y80.224 E.01681
G1 X134.276 Y77.126 E.13769
G1 X133.742 Y77.126 E.01678
G1 X137.374 Y80.758 E.16143
G1 X137.374 Y81.293 E.01681
G1 X133.207 Y77.126 E.18521
G1 X132.673 Y77.126 E.01678
G1 X137.374 Y81.827 E.20894
G1 X137.374 Y82.362 E.01681
G1 X132.138 Y77.126 E.23272
G1 X131.603 Y77.126 E.01681
M73 Q2 S27
G1 X137.374 Y82.897 E.2565
G1 X137.374 Y83.431 E.01678
G1 X131.069 Y77.126 E.28023
G1 X130.534 Y77.126 E.01681
G1 X137.374 Y83.966 E.30401
G1 X137.374 Y84.5 E.01678
G1 X130 Y77.126 E.32775
G1 X129.465 Y77.126 E.01681
G1 X137.374 Y85.035 E.35152
G1 X137.374 Y85.569 E.01678
G1 X128.931 Y77.126 E.37526
G1 X128.396 Y77.126 E.01681
G1 X137.374 Y86.104 E.39904
G1 X137.374 Y86.638 E.01678
G1 X127.862 Y77.126 E.42277
G1 X127.327 Y77.126 E.01681
G1 X137.374 Y87.173 E.44655
G1 X137.374 Y87.707 E.01678
G1 X126.793 Y77.126 E.47028
G1 X126.258 Y77.126 E.01681
G1 X137.374 Y88.242 E.49406
G1 X137.374 Y88.776 E.01678
G1 X125.724 Y77.126 E.5178
G1 X125.189 Y77.126 E.01681
G1 X137.374 Y89.311 E.54158
G1 X137.374 Y89.845 E.01678
G1 X124.655 Y77.126 E.56531
G1 X124.12 Y77.126 E.01681
G1 X137.374 Y90.38 E.58909
G1 X137.374 Y90.914 E.01678
G1 X123.586 Y77.126 E.61282
G1 X123.051 Y77.126 E.01681
G1 X137.374 Y91.449 E.6366
G1 X137.374 Y91.983 E.01678
G1 X122.517 Y77.126 E.66034
G1 X121.982 Y77.126 E.01681
M73 P3 R27
M73 Q3 S27
G1 X137.374 Y92.518 E.68412
G1 X137.374 Y93.053 E.01681
G1 X121.447 Y77.126 E.70789
G1 X120.913 Y77.126 E.01678
G1 X137.374 Y93.587 E.73163
G1 X137.374 Y94.122 E.01681
G1 X120.378 Y77.126 E.75541
G1 X119.844 Y77.126 E.01678
G1 X137.374 Y94.656 E.77914
G1 X137.374 Y95.191 E.01681
G1 X119.309 Y77.126 E.80292
G1 X118.775 Y77.126 E.01678
G1 X137.374 Y95.725 E.82665
G1 X137.374 Y96.26 E.01681
G1 X118.24 Y77.126 E.85043
G1 X117.706 Y77.126 E.01678
G1 X137.374 Y96.794 E.87417
G1 X137.374 Y97.329 E.01681
G1 X117.171 Y77.126 E.89795
G1 X116.637 Y77.126 E.01678
G1 X137.374 Y97.863 E.92168
G1 X137.374 Y98.398 E.01681
G1 X116.102 Y77.126 E.94546
G1 X115.568 Y77.126 E.01678
G1 X137.374 Y98.932 E.96919
G1 X137.374 Y99.467 E.01681
M73 P4 R27
M73 Q4 S27
G1 X115.033 Y77.126 E.99297
G1 X114.499 Y77.126 E.01678
G1 X137.374 Y100.001 E1.01671
G1 X137.374 Y100.536 E.01681
G1 X113.964 Y77.126 E1.04048
G1 X113.43 Y77.126 E.01678
G1 X137.374 Y101.07 E1.06422
G1 X137.374 Y101.605 E.01681
G1 X112.895 Y77.126 E1.088
G1 X112.626 Y77.126 E.00845
G1 X112.626 Y77.392 E.00836
G1 X137.374 Y102.139 E1.09993
G1 X137.374 Y102.674 E.01681
G1 X112.626 Y77.927 E1.09993
G1 X112.626 Y78.461 E.01678
G1 X137.374 Y103.209 E1.09995
G1 X137.374 Y103.743 E.01678
G1 X112.626 Y78.996 E1.09993
G1 X112.626 Y79.531 E.01681
M73 P4 R26
G1 X137.374 Y104.278 E1.09993
G1 X137.374 Y104.812 E.01678
M73 P5 R26
M73 Q5 S27
G1 X112.626 Y80.065 E1.09993
G1 X112.626 Y80.6 E.01681
G1 X137.374 Y105.347 E1.09993
G1 X137.374 Y105.881 E.01678
G1 X112.626 Y81.134 E1.09993
G1 X112.626 Y81.669 E.01681
G1 X137.374 Y106.416 E1.09993
G1 X137.374 Y106.95 E.01678
G1 X112.626 Y82.203 E1.09993
G1 X112.626 Y82.738 E.01681
G1 X137.374 Y107.485 E1.09993
G1 X137.374 Y108.019 E.01678
G1 X112.626 Y83.272 E1.09993
G1 X112.626 Y83.807 E.01681
M73 Q5 S26
G1 X137.374 Y108.554 E1.09993
G1 X137.374 Y109.088 E.01678
G1 X112.626 Y84.341 E1.09993
G1 X112.626 Y84.876 E.01681
M73 P6 R26
M73 Q6 S26
G1 X137.374 Y109.623 E1.09993
G1 X137.374 Y110.157 E.01678
G1 X112.626 Y85.41 E1.09993
G1 X112.626 Y85.945 E.01681
G1 X137.374 Y110.692 E1.09993
G1 X137.374 Y111.226 E.01678
G1 X112.626 Y86.479 E1.09993
G1 X112.626 Y87.014 E.01681
G1 X137.374 Y111.761 E1.09993
G1 X137.374 Y112.296 E.01681
G1 X112.626 Y87.548 E1.09995
G1 X112.626 Y88.083 E.01681
G1 X137.374 Y112.83 E1.09993
G1 X137.374 Y113.365 E.01681
G1 X112.626 Y88.617 E1.09995
G1 X112.626 Y89.152 E.01681
G1 X137.374 Y113.899 E1.09993
G1 X137.374 Y114.434 E.01681
G1 X112.626 Y89.687 E1.09993
G1 X112.626 Y90.221 E.01678
M73 P7 R26
M73 Q7 S26
G1 X137.374 Y114.968 E1.09993
G1 X137.374 Y115.503 E.01681
G1 X112.626 Y90.756 E1.09993
G1 X112.626 Y91.29 E.01678
G1 X137.374 Y116.037 E1.09993
G1 X137.374 Y116.572 E.01681
G1 X112.626 Y91.825 E1.09993
G1 X112.626 Y92.359 E.01678
G1 X137.374 Y117.106 E1.09993
G1 X137.374 Y117.641 E.01681
G1 X112.626 Y92.894 E1.09993
G1 X112.626 Y93.428 E.01678
G1 X137.374 Y118.175 E1.09993
G1 X137.374 Y118.71 E.01681
G1 X112.626 Y93.963 E1.09993
G1 X112.626 Y94.497 E.01678
G1 X137.374 Y119.244 E1.09993
G1 X137.374 Y119.779 E.01681
M73 P8 R26
G1 X112.626 Y95.032 E1.09993
G1 X112.626 Y95.566 E.01678
M73 Q8 S26
G1 X137.374 Y120.313 E1.09993
G1 X137.374 Y120.848 E.01681
G1 X112.626 Y96.101 E1.09993
G1 X112.626 Y96.635 E.01678
G1 X137.374 Y121.382 E1.09993
G1 X137.374 Y121.917 E.01681
M73 P8 R25
G1 X112.626 Y97.17 E1.09993
G1 X112.626 Y97.704 E.01678
G1 X137.374 Y122.452 E1.09995
G1 X137.374 Y122.986 E.01678
G1 X112.626 Y98.239 E1.09993
G1 X112.626 Y98.773 E.01678
G1 X137.374 Y123.521 E1.09995
G1 X137.374 Y124.055 E.01678
G1 X112.626 Y99.308 E1.09993
G1 X112.626 Y99.843 E.01681
G1 X137.374 Y124.59 E1.09993
G1 X137.374 Y125.124 E.01678
M73 P9 R25
M73 Q9 S26
G1 X112.626 Y100.377 E1.09993
G1 X112.626 Y100.912 E.01681
G1 X137.374 Y125.659 E1.09993
G1 X137.374 Y126.193 E.01678
M73 Q9 S25
G1 X112.626 Y101.446 E1.09993
G1 X112.626 Y101.981 E.01681
G1 X137.374 Y126.728 E1.09993
G1 X137.374 Y127.262 E.01678
G1 X112.626 Y102.515 E1.09993
G1 X112.626 Y103.05 E.01681
G1 X137.374 Y127.797 E1.09993
G1 X137.374 Y128.331 E.01678
G1 X112.626 Y103.584 E1.09993
G1 X112.626 Y104.119 E.01681
G1 X137.374 Y128.866 E1.09993
G1 X137.374 Y129.4 E.01678
G1 X112.626 Y104.653 E1.09993
G1 X112.626 Y105.188 E.01681
M73 P10 R25
G1 X137.374 Y129.935 E1.09993
G1 X137.374 Y130.469 E.01678
M73 Q10 S25
G1 X112.626 Y105.722 E1.09993
G1 X112.626 Y106.257 E.01681
G1 X137.374 Y131.004 E1.09993
G1 X137.374 Y131.539 E.01681
G1 X112.626 Y106.791 E1.09995
G1 X112.626 Y107.326 E.01681
G1 X137.374 Y132.073 E1.09993
G1 X137.374 Y132.608 E.01681
G1 X112.626 Y107.86 E1.09995
G1 X112.626 Y108.395 E.01681
G1 X137.105 Y132.874 E1.088
G1 X136.57 Y132.874 E.01681
G1 X112.626 Y108.93 E1.06422
G1 X112.626 Y109.464 E.01678
G1 X136.036 Y132.874 E1.04048
G1 X135.501 Y132.874 E.01681
G1 X112.626 Y109.999 E1.01671
G1 X112.626 Y110.533 E.01678
M73 P11 R25
G1 X134.967 Y132.874 E.99297
G1 X134.432 Y132.874 E.01681
M73 Q11 S25
G1 X112.626 Y111.068 E.96919
G1 X112.626 Y111.602 E.01678
G1 X130.898 Y129.874 E.81212
G1 X131.144 Y129.901 E.00778
G1 X131.283 Y129.948 E.00461
G1 X131.535 Y130.111 E.00943
G1 X131.657 Y130.25 E.00581
G1 X131.751 Y130.415 E.00597
G1 X131.81 Y130.604 E.00622
G1 X131.826 Y130.802 E.00624
G1 X133.898 Y132.874 E.09209
G1 X133.363 Y132.874 E.01681
G1 X131.826 Y131.337 E.06831
G1 X131.826 Y131.871 E.01678
G1 X132.829 Y132.874 E.04458
G1 X132.294 Y132.874 E.01681
G1 X131.657 Y132.236 E.02833
M204 S1000
;WIPE_START
G1 F8640
G1 X132.294 Y132.874 E-.20817
G1 X132.829 Y132.874 E-.12353
G1 X131.826 Y131.871 E-.32753
G1 X131.826 Y131.337 E-.1233
G1 X131.879 Y131.39 E-.01747
;WIPE_END
G1 Z.6 F720
G1 X130.533 Y130.043 F10800
G1 Z.2 F720
G1 E.8 F2100
M204 S800
G1 F1200
G1 X112.626 Y112.137 E.79587
G1 X112.626 Y112.671 E.01678
G1 X129.829 Y129.874 E.76461
G1 X129.295 Y129.874 E.01678
G1 X112.626 Y113.206 E.74085
G1 X112.626 Y113.74 E.01678
G1 X128.761 Y129.875 E.71714
G1 X128.226 Y129.875 E.01681
G1 X112.626 Y114.275 E.69336
G1 X112.626 Y114.809 E.01678
G1 X127.692 Y129.875 E.66963
G1 X127.158 Y129.875 E.01678
G1 X112.626 Y115.344 E.64587
G1 X112.626 Y115.878 E.01678
G1 X126.624 Y129.875 E.62213
G1 X126.089 Y129.876 E.01681
G1 X112.626 Y116.413 E.59838
G1 X112.626 Y116.947 E.01678
M73 P11 R24
G1 X125.555 Y129.876 E.57464
G1 X125.021 Y129.876 E.01678
M73 P12 R24
G1 X112.626 Y117.482 E.55089
G1 X112.626 Y118.016 E.01678
M73 Q12 S25
G1 X124.486 Y129.876 E.52713
G1 X123.952 Y129.877 E.01678
G1 X112.626 Y118.551 E.5034
G1 X112.626 Y119.086 E.01681
G1 X123.418 Y129.877 E.47964
G1 X122.884 Y129.877 E.01678
G1 X112.626 Y119.62 E.45591
G1 X112.626 Y120.155 E.01681
G1 X122.349 Y129.877 E.43213
G1 X121.815 Y129.878 E.01678
G1 X112.626 Y120.689 E.40842
G1 X112.626 Y121.224 E.01681
G1 X121.281 Y129.878 E.38466
G1 X120.746 Y129.878 E.01681
G1 X112.626 Y121.758 E.3609
G1 X112.626 Y122.293 E.01681
G1 X120.212 Y129.878 E.33715
G1 X119.678 Y129.879 E.01678
G1 X112.626 Y122.827 E.31343
G1 X112.626 Y123.362 E.01681
G1 X119.144 Y129.879 E.28968
G1 X118.969 Y129.879 E.0055
G1 X118.693 Y129.963 E.00907
G1 X112.626 Y123.896 E.26965
G1 X112.626 Y124.431 E.01681
G1 X118.391 Y130.195 E.25621
G1 X118.249 Y130.415 E.00823
G1 X118.208 Y130.547 E.00434
G1 X112.626 Y124.965 E.2481
G1 X112.626 Y125.5 E.01681
G1 X118.174 Y131.047 E.24656
G1 X118.174 Y131.581 E.01678
G1 X112.626 Y126.034 E.24656
G1 X112.626 Y126.569 E.01681
G1 X118.174 Y132.116 E.24656
G1 X118.174 Y132.651 E.01681
G1 X112.626 Y127.103 E.24659
G1 X112.626 Y127.638 E.01681
G1 X117.862 Y132.874 E.23272
G1 X117.327 Y132.874 E.01681
G1 X112.626 Y128.173 E.20894
G1 X112.626 Y128.707 E.01678
M73 Q12 S24
G1 X116.793 Y132.874 E.18521
G1 X116.258 Y132.874 E.01681
G1 X112.626 Y129.242 E.16143
G1 X112.626 Y129.776 E.01678
G1 X115.724 Y132.874 E.13769
G1 X115.189 Y132.874 E.01681
G1 X112.626 Y130.311 E.11392
G1 X112.626 Y130.845 E.01678
G1 X114.655 Y132.874 E.09018
G1 X114.12 Y132.874 E.01681
G1 X112.626 Y131.38 E.0664
G1 X112.626 Y131.914 E.01678
G1 X113.586 Y132.874 E.04267
G1 X113.051 Y132.874 E.01681
G1 X112.457 Y132.279 E.02642
M204 S1000
; stop printing object PicoW Mount id:0 copy 0
M106 S84.15
;LAYER_CHANGE
;Z:0.5
;HEIGHT:0.3
;BEFORE_LAYER_CHANGE
G92 E0.0
;0.5


;WIPE_START
G1 F8640
G1 X113.051 Y132.874 E-.19413
G1 X113.586 Y132.874 E-.12353
G1 X112.626 Y131.914 E-.31348
G1 X112.626 Y131.38 E-.1233
G1 X112.766 Y131.52 E-.04556
;WIPE_END
G1 Z.6 F720
;AFTER_LAYER_CHANGE
;0.5
M104 S210 ; set temperature
G1 X109.123 Y131.52 F10800
G1 Z.5 F720
G1 E.8 F2100
;TYPE:Skirt/Brim
;WIDTH:0.42
G1 F2700
G1 X109.123 Y76 E2.46258
G1 X109.515 Y74.693 E.06052
G1 X110.56 Y73.817 E.06048
G1 X111.5 Y73.623 E.04257
G1 X138.5 Y73.623 E1.19758
G1 X139.807 Y74.015 E.06052
M73 P13 R24
G1 X140.683 Y75.06 E.06048
G1 X140.877 Y76 E.04257
G1 X140.877 Y134 E2.57258
G1 X140.485 Y135.307 E.06052
M73 Q13 S24
G1 X139.44 Y136.183 E.06048
G1 X138.5 Y136.377 E.04257
G1 X111.5 Y136.377 E1.19758
G1 X110.193 Y135.985 E.06052
G1 X109.317 Y134.94 E.06048
G1 X109.123 Y134 E.04257
G1 X109.123 Y131.58 E.10734
; printing object PicoW Mount id:0 copy 0
;WIPE_START
G1 F8640
G1 X109.123 Y128.115 E-.8
;WIPE_END
G1 Z.9 F720
G1 X131.444 Y130.776 F10800
G1 Z.5 F720
G1 E.8 F2100
M204 S800
;TYPE:Perimeter
;WIDTH:0.5
G1 F3000
G1 X131.418 Y130.655 E.00672
G1 X131.266 Y130.436 E.01448
G1 X130.984 Y130.258 E.01812
G1 X130.732 Y130.214 E.0139
G1 X119.268 Y130.214 E.62287
G1 X119.016 Y130.258 E.0139
G1 X118.734 Y130.436 E.01812
G1 X118.582 Y130.655 E.01448
G1 X118.514 Y130.968 E.0174
G1 X118.514 Y133.214 E.12203
G1 X112.286 Y133.214 E.33838
G1 X112.286 Y76.786 E3.06589
G1 X137.714 Y76.786 E1.38157
G1 X137.714 Y133.214 E3.06589
G1 X131.486 Y133.214 E.33838
G1 X131.486 Y130.968 E.12203
G1 X131.457 Y130.834 E.00745
M204 S1000
G1 X130.992 Y130.905 F10800
M204 S800
;TYPE:External perimeter
;WIDTH:0.6
G1 F2100

G1 X130.889 Y130.751 E.01238
G1 X130.732 Y130.7 E.01103
G1 X119.21 Y130.706 E.76973
G1 X119.048 Y130.814 E.01301
G1 X119 Y130.968 E.01078
G1 F2099.997
G1 X119 Y133.7 E.18251
G1 X118.4 Y133.7 E.04008
G1 X112.4 Y133.7 E.40083
G1 F2100
G1 X111.8 Y133.7 E.04008
G1 X111.8 Y133.1 E.04008
G1 F2099.997
G1 X111.8 Y76.9 E3.75446
G1 X111.8 Y76.3 E.04008
G1 X112.4 Y76.3 E.04008
G1 X137.6 Y76.3 E1.68349
G1 X138.2 Y76.3 E.04008
G1 X138.2 Y76.9 E.04008
G1 X138.2 Y133.1 E3.75446
G1 X138.2 Y133.7 E.04008
G1 X137.6 Y133.7 E.04008
G1 X131.6 Y133.7 E.40083
G1 X131 Y133.7 E.04008
G1 X131 Y130.964 E.18278
G1 F2100

M204 S1000
G1 X131.039 Y130.725 F10800
;WIPE_START
G1 F8640
G1 X130.889 Y130.751 E-.05546
G1 X130.732 Y130.7 E-.03812
G1 X127.673 Y130.702 E-.70642
;WIPE_END
G1 Z.9 F720
G1 X112.796 Y77.213 F10800
G1 Z.5 F720
G1 E.8 F2100
;TYPE:Solid infill
;WIDTH:0.605691
G1 F4800
G1 X112.748 Y77.165 E.00458
G1 X112.683 Y77.183 E.00455
G1 X112.665 Y77.248 E.00455
G1 X112.713 Y77.296 E.00458
G1 X112.778 Y77.278 E.00455
;WIDTH:0.5
