; generated by PrusaSlicer 2.6.1+MacOS-arm64 on 2023-12-23 at 06:40:27 UTC


;
;
; 

; external perimeters extrusion width = 0.60mm
; perimeters extrusion width = 0.50mm
; infill extrusion width = 0.50mm
; solid infill extrusion width = 0.50mm
; top infill extrusion width = 0.45mm
; first layer extrusion width = 0.42mm

M73 P0 R36
M73 Q0 S37
M201 X1000 Y1000 Z200 E5000 ; sets maximum accelerations, mm/sec^2
M203 X200 Y200 Z12 E120 ; sets maximum feedrates, mm / sec
M204 S1250 T1250 ; sets acceleration (S) and retract acceleration (R), mm/sec^2
M205 X8.00 Y8.00 Z0.40 E4.50 ; sets the jerk limits, mm/sec
M205 S0 T0 ; sets the minimum extruding and travel feed rate, mm/sec
;TYPE:Custom
M862.3 P "MK3" ; printer model check
M862.1 P0.4 ; nozzle diameter check
M115 U3.12.2 ; tell printer latest fw version
G90 ; use absolute coordinates
M83 ; extruder relative mode
M104 S215 ; set extruder temp
M140 S60 ; set bed temp
M190 S60 ; wait for bed temp
M109 S215 ; wait for extruder temp
G28 W ; home all without mesh bed level
G80 ; mesh bed leveling

G1 Z0.2 F720
G1 Y-3 F1000 ; go outside print area
G92 E0
G1 X60 E9 F1000 ; intro line
G1 X100 E12.5 F1000 ; intro line

G92 E0
M221 S95

; Don't change E values below. Excessive value can damage the printer.

M907 E538 ; set extruder motor current
G21 ; set units to millimeters
G90 ; use absolute coordinates
M83 ; use relative distances for extrusion
M900 K0.05 ; Filament gcode LA 1.5
M900 K30 ; Filament gcode LA 1.0
M107
;LAYER_CHANGE
;Z:0.2
;HEIGHT:0.2
;BEFORE_LAYER_CHANGE
G92 E0.0
;0.2


G1 E-.8 F2100
G1 Z.4 F720
;AFTER_LAYER_CHANGE
;0.2
G1 X103.515 Y72.693 F10800
G1 Z.2 F720
G1 E.8 F2100
M204 S800
;TYPE:Skirt/Brim
;WIDTH:0.42
G1 F1200
G1 X104.56 Y71.817 E.04275
G1 X105.5 Y71.623 E.03009
G1 X144.5 Y71.623 E1.22282
G1 X145.807 Y72.015 E.04278
G1 X146.683 Y73.06 E.04275
G1 X146.877 Y74 E.03009
G1 X146.877 Y136 E1.94397
G1 X146.485 Y137.307 E.04278
G1 X145.44 Y138.183 E.04275
G1 X144.5 Y138.377 E.03009
G1 X105.5 Y138.377 E1.22282
G1 X104.193 Y137.985 E.04278
G1 X103.317 Y136.94 E.04275
G1 X103.123 Y136 E.03009
G1 X103.123 Y74 E1.94397
G1 X103.497 Y72.75 E.04091
M204 S1000
; printing object Relay Mount id:0 copy 0
;WIPE_START
M73 Q0 S36
G1 F8640
G1 X104.56 Y71.817 E-.32658
G1 X105.5 Y71.623 E-.22162
G1 X106.591 Y71.623 E-.2518
;WIPE_END
G1 Z.6 F720
G1 X143.713 Y135.213 F10800
G1 Z.2 F720
G1 E.8 F2100
M204 S800
;TYPE:Perimeter
;WIDTH:0.419999
G1 F1200
G1 X106.287 Y135.213 E1.17346
G1 X106.287 Y74.787 E1.89461
G1 X143.713 Y74.787 E1.17346
M73 P1 R36
M73 Q1 S36
G1 X143.713 Y135.153 E1.89273
M204 S1000
G1 X144.09 Y135.59 F10800
M204 S800
;TYPE:External perimeter
G1 F1200
G1 X105.91 Y135.59 E1.19711
G1 X105.91 Y74.41 E1.91825
G1 X144.09 Y74.41 E1.19711
G1 X144.09 Y135.53 E1.91637
M204 S1000
G1 X143.713 Y135.458 F10800
;WIPE_START
G1 F8640
G1 X140.625 Y135.535 E-.8
;WIPE_END
G1 Z.6 F720
G1 X142.779 Y74.957 F10800
G1 Z.2 F720
G1 E.8 F2100
M204 S800
;TYPE:Solid infill
;WIDTH:0.420749
G1 F1200
G1 X143.374 Y75.551 E.02641
G1 X143.374 Y76.085 E.01678
G1 X142.415 Y75.126 E.04261
G1 X141.88 Y75.126 E.01681
G1 X143.374 Y76.62 E.06638
G1 X143.374 Y77.154 E.01678
G1 X141.346 Y75.126 E.0901
G1 X140.812 Y75.126 E.01678
G1 X143.374 Y77.688 E.11383
G1 X143.374 Y78.223 E.01681
G1 X140.277 Y75.126 E.1376
G1 X139.743 Y75.126 E.01678
G1 X143.374 Y78.757 E.16132
G1 X143.374 Y79.291 E.01678
G1 X139.209 Y75.126 E.18505
G1 X138.674 Y75.126 E.01681
G1 X143.374 Y79.826 E.20882
G1 X143.374 Y80.36 E.01678
G1 X138.14 Y75.126 E.23255
G1 X137.606 Y75.126 E.01678
G1 X143.374 Y80.894 E.25627
G1 X143.374 Y81.429 E.01681
G1 X137.071 Y75.126 E.28004
G1 X136.537 Y75.126 E.01678
G1 X143.374 Y81.963 E.30377
G1 X143.374 Y82.497 E.01678
G1 X136.003 Y75.126 E.32749
G1 X135.468 Y75.126 E.01681
G1 X143.374 Y83.032 E.35126
G1 X143.374 Y83.566 E.01678
M73 P2 R36
M73 Q2 S36
G1 X134.934 Y75.126 E.37499
G1 X134.4 Y75.126 E.01678
G1 X143.374 Y84.1 E.39871
G1 X143.374 Y84.635 E.01681
G1 X133.865 Y75.126 E.42248
G1 X133.331 Y75.126 E.01678
G1 X143.374 Y85.169 E.44621
G1 X143.374 Y85.703 E.01678
G1 X132.797 Y75.126 E.46993
G1 X132.262 Y75.126 E.01681
G1 X143.374 Y86.238 E.4937
G1 X143.374 Y86.772 E.01678
G1 X131.728 Y75.126 E.51743
G1 X131.194 Y75.126 E.01678
G1 X143.374 Y87.306 E.54115
G1 X143.374 Y87.841 E.01681
G1 X130.659 Y75.126 E.56492
G1 X130.125 Y75.126 E.01678
G1 X143.374 Y88.375 E.58865
G1 X143.374 Y88.909 E.01678
G1 X129.591 Y75.126 E.61238
G1 X129.056 Y75.126 E.01681
G1 X143.374 Y89.444 E.63615
G1 X143.374 Y89.978 E.01678
M73 P2 R35
G1 X128.522 Y75.126 E.65987
G1 X127.988 Y75.126 E.01678
G1 X143.374 Y90.512 E.6836
G1 X143.374 Y91.047 E.01681
G1 X127.453 Y75.126 E.70737
G1 X126.919 Y75.126 E.01678
G1 X143.374 Y91.581 E.73109
G1 X143.374 Y92.115 E.01678
G1 X126.385 Y75.126 E.75482
G1 X125.85 Y75.126 E.01681
G1 X143.374 Y92.65 E.77859
G1 X143.374 Y93.184 E.01678
G1 X125.316 Y75.126 E.80231
G1 X124.782 Y75.126 E.01678
G1 X143.374 Y93.718 E.82604
G1 X143.374 Y94.253 E.01681
G1 X124.247 Y75.126 E.84981
G1 X123.713 Y75.126 E.01678
G1 X143.374 Y94.787 E.87353
G1 X143.374 Y95.321 E.01678
M73 P3 R35
M73 Q3 S36
G1 X123.179 Y75.126 E.89726
G1 X122.644 Y75.126 E.01681
G1 X143.374 Y95.856 E.92103
G1 X143.374 Y96.39 E.01678
G1 X122.11 Y75.126 E.94476
G1 X121.576 Y75.126 E.01678
G1 X143.374 Y96.924 E.96848
G1 X143.374 Y97.459 E.01681
G1 X121.041 Y75.126 E.99225
G1 X120.507 Y75.126 E.01678
G1 X143.374 Y97.993 E1.01598
G1 X143.374 Y98.527 E.01678
M73 Q3 S35
G1 X119.973 Y75.126 E1.0397
G1 X119.439 Y75.126 E.01678
G1 X143.374 Y99.061 E1.06343
G1 X143.374 Y99.596 E.01681
G1 X118.904 Y75.126 E1.0872
G1 X118.37 Y75.126 E.01678
G1 X143.374 Y100.13 E1.11092
G1 X143.374 Y100.664 E.01678
G1 X117.836 Y75.126 E1.13465
G1 X117.301 Y75.126 E.01681
G1 X143.374 Y101.199 E1.15842
G1 X143.374 Y101.733 E.01678
G1 X116.767 Y75.126 E1.18214
G1 X116.233 Y75.126 E.01678
M73 P4 R35
M73 Q4 S35
G1 X143.374 Y102.267 E1.20587
G1 X143.374 Y102.802 E.01681
G1 X115.698 Y75.126 E1.22964
G1 X115.164 Y75.126 E.01678
G1 X143.374 Y103.336 E1.25336
G1 X143.374 Y103.87 E.01678
G1 X114.63 Y75.126 E1.27709
G1 X114.095 Y75.126 E.01681
G1 X143.374 Y104.405 E1.30086
G1 X143.374 Y104.939 E.01678
G1 X113.561 Y75.126 E1.32459
G1 X113.027 Y75.126 E.01678
G1 X143.374 Y105.473 E1.34831
G1 X143.374 Y106.008 E.01681
G1 X112.492 Y75.126 E1.37208
G1 X111.958 Y75.126 E.01678
G1 X143.374 Y106.542 E1.39581
G1 X143.374 Y107.076 E.01678
G1 X111.424 Y75.126 E1.41953
G1 X110.889 Y75.126 E.01681
G1 X143.374 Y107.611 E1.4433
G1 X143.374 Y108.145 E.01678
M73 P5 R35
M73 Q5 S35
G1 X110.355 Y75.126 E1.46703
G1 X109.821 Y75.126 E.01678
M73 P5 R34
G1 X143.374 Y108.679 E1.49075
G1 X143.374 Y109.214 E.01681
G1 X109.286 Y75.126 E1.51452
G1 X108.752 Y75.126 E.01678
G1 X143.374 Y109.748 E1.53825
G1 X143.374 Y110.282 E.01678
G1 X108.218 Y75.126 E1.56197
G1 X107.683 Y75.126 E.01681
G1 X143.374 Y110.817 E1.58574
G1 X143.374 Y111.351 E.01678
G1 X107.149 Y75.126 E1.60947
G1 X106.626 Y75.138 E.01644
G1 X143.374 Y111.885 E1.63268
G1 X143.374 Y112.42 E.01681
M73 P6 R34
G1 X106.626 Y75.673 E1.63268
G1 X106.626 Y76.207 E.01678
M73 Q6 S35
G1 X143.374 Y112.954 E1.63268
G1 X143.374 Y113.488 E.01678
M73 Q6 S34
G1 X106.626 Y76.741 E1.63268
G1 X106.626 Y77.276 E.01681
G1 X143.374 Y114.023 E1.63268
G1 X143.374 Y114.557 E.01678
G1 X106.626 Y77.81 E1.63268
G1 X106.626 Y78.344 E.01678
G1 X143.374 Y115.091 E1.63268
G1 X143.374 Y115.626 E.01681
G1 X106.626 Y78.879 E1.63268
G1 X106.626 Y79.413 E.01678
G1 X143.374 Y116.16 E1.63268
G1 X143.374 Y116.694 E.01678
G1 X106.626 Y79.947 E1.63268
G1 X106.626 Y80.482 E.01681
M73 P7 R34
M73 Q7 S34
G1 X143.374 Y117.229 E1.63268
G1 X143.374 Y117.763 E.01678
G1 X106.626 Y81.016 E1.63268
G1 X106.626 Y81.55 E.01678
G1 X143.374 Y118.297 E1.63268
G1 X143.374 Y118.832 E.01681
G1 X106.626 Y82.085 E1.63268
G1 X106.626 Y82.619 E.01678
G1 X143.374 Y119.366 E1.63268
G1 X143.374 Y119.9 E.01678
G1 X106.626 Y83.153 E1.63268
G1 X106.626 Y83.688 E.01681
G1 X143.374 Y120.435 E1.63268
G1 X143.374 Y120.969 E.01678
M73 P7 R33
G1 X106.626 Y84.222 E1.63268
G1 X106.626 Y84.756 E.01678
M73 P8 R33
G1 X143.374 Y121.503 E1.63268
G1 X143.374 Y122.038 E.01681
M73 Q8 S34
G1 X106.626 Y85.291 E1.63268
G1 X106.626 Y85.825 E.01678
G1 X143.374 Y122.572 E1.63268
G1 X143.374 Y123.106 E.01678
G1 X106.626 Y86.359 E1.63268
G1 X106.626 Y86.894 E.01681
G1 X143.374 Y123.641 E1.63268
G1 X143.374 Y124.175 E.01678
G1 X106.626 Y87.428 E1.63268
G1 X106.626 Y87.962 E.01678
G1 X143.374 Y124.709 E1.63268
G1 X143.374 Y125.244 E.01681
M73 Q8 S33
G1 X106.626 Y88.497 E1.63268
G1 X106.626 Y89.031 E.01678
G1 X143.374 Y125.778 E1.63268
G1 X143.374 Y126.312 E.01678
M73 P9 R33
M73 Q9 S33
G1 X106.626 Y89.565 E1.63268
G1 X106.626 Y90.1 E.01681
G1 X143.374 Y126.847 E1.63268
G1 X143.374 Y127.381 E.01678
G1 X106.626 Y90.634 E1.63268
G1 X106.626 Y91.168 E.01678
G1 X143.374 Y127.915 E1.63268
G1 X143.374 Y128.45 E.01681
G1 X106.626 Y91.703 E1.63268
G1 X106.626 Y92.237 E.01678
G1 X143.374 Y128.984 E1.63268
G1 X143.374 Y129.518 E.01678
G1 X106.626 Y92.771 E1.63268
G1 X106.626 Y93.306 E.01681
G1 X143.374 Y130.053 E1.63268
G1 X143.374 Y130.587 E.01678
M73 P10 R33
G1 X106.626 Y93.84 E1.63268
G1 X106.626 Y94.374 E.01678
M73 Q10 S33
G1 X143.374 Y131.121 E1.63268
G1 X143.374 Y131.656 E.01681
G1 X106.626 Y94.909 E1.63268
G1 X106.626 Y95.443 E.01678
G1 X143.374 Y132.19 E1.63268
G1 X143.374 Y132.724 E.01678
G1 X106.626 Y95.977 E1.63268
G1 X106.626 Y96.512 E.01681
M73 P10 R32
G1 X143.374 Y133.259 E1.63268
G1 X143.374 Y133.793 E.01678
G1 X106.626 Y97.046 E1.63268
G1 X106.626 Y97.58 E.01678
G1 X143.374 Y134.327 E1.63268
G1 X143.374 Y134.862 E.01681
M73 P11 R32
G1 X106.626 Y98.115 E1.63268
G1 X106.626 Y98.649 E.01678
M73 Q11 S33
G1 X142.851 Y134.874 E1.60947
G1 X142.317 Y134.874 E.01678
G1 X106.626 Y99.183 E1.58574
G1 X106.626 Y99.718 E.01681
G1 X141.782 Y134.874 E1.56197
G1 X141.248 Y134.874 E.01678
G1 X106.626 Y100.252 E1.53825
G1 X106.626 Y100.786 E.01678
M73 Q11 S32
G1 X140.714 Y134.874 E1.51452
G1 X140.179 Y134.874 E.01681
G1 X106.626 Y101.321 E1.49075
G1 X106.626 Y101.855 E.01678
G1 X139.645 Y134.874 E1.46703
G1 X139.111 Y134.874 E.01678
G1 X106.626 Y102.389 E1.4433
G1 X106.626 Y102.924 E.01681
M73 P12 R32
G1 X138.576 Y134.874 E1.41953
G1 X138.042 Y134.874 E.01678
M73 Q12 S32
G1 X106.626 Y103.458 E1.39581
G1 X106.626 Y103.992 E.01678
G1 X137.508 Y134.874 E1.37208
G1 X136.973 Y134.874 E.01681
G1 X106.626 Y104.527 E1.34831
G1 X106.626 Y105.061 E.01678
G1 X136.439 Y134.874 E1.32459
G1 X135.905 Y134.874 E.01678
G1 X106.626 Y105.595 E1.30086
G1 X106.626 Y106.13 E.01681
G1 X135.37 Y134.874 E1.27709
G1 X134.836 Y134.874 E.01678
G1 X106.626 Y106.664 E1.25336
G1 X106.626 Y107.198 E.01678
G1 X134.302 Y134.874 E1.22964
G1 X133.767 Y134.874 E.01681
G1 X106.626 Y107.733 E1.20587
G1 X106.626 Y108.267 E.01678
G1 X133.233 Y134.874 E1.18214
G1 X132.699 Y134.874 E.01678
M73 P13 R32
G1 X106.626 Y108.801 E1.15842
G1 X106.626 Y109.336 E.01681
M73 Q13 S32
G1 X132.164 Y134.874 E1.13465
G1 X131.63 Y134.874 E.01678
G1 X106.626 Y109.87 E1.11092
G1 X106.626 Y110.404 E.01678
M73 P13 R31
G1 X131.096 Y134.874 E1.0872
G1 X130.561 Y134.874 E.01681
G1 X106.626 Y110.939 E1.06343
G1 X106.626 Y111.473 E.01678
G1 X130.027 Y134.874 E1.0397
G1 X129.493 Y134.874 E.01678
G1 X106.626 Y112.007 E1.01598
G1 X106.626 Y112.541 E.01678
G1 X128.959 Y134.874 E.99225
G1 X128.424 Y134.874 E.01681
G1 X106.626 Y113.076 E.96848
G1 X106.626 Y113.61 E.01678
G1 X127.89 Y134.874 E.94476
G1 X127.356 Y134.874 E.01678
G1 X106.626 Y114.144 E.92103
G1 X106.626 Y114.679 E.01681
G1 X126.821 Y134.874 E.89726
G1 X126.287 Y134.874 E.01678
G1 X106.626 Y115.213 E.87353
G1 X106.626 Y115.747 E.01678
M73 P14 R31
G1 X125.753 Y134.874 E.84981
G1 X125.218 Y134.874 E.01681
G1 X106.626 Y116.282 E.82604
G1 X106.626 Y116.816 E.01678
M73 Q14 S32
G1 X124.684 Y134.874 E.80231
G1 X124.15 Y134.874 E.01678
G1 X106.626 Y117.35 E.77859
G1 X106.626 Y117.885 E.01681
M73 Q14 S31
G1 X123.615 Y134.874 E.75482
G1 X123.081 Y134.874 E.01678
G1 X106.626 Y118.419 E.73109
G1 X106.626 Y118.953 E.01678
G1 X122.547 Y134.874 E.70737
G1 X122.012 Y134.874 E.01681
G1 X106.626 Y119.488 E.6836
G1 X106.626 Y120.022 E.01678
G1 X121.478 Y134.874 E.65987
G1 X120.944 Y134.874 E.01678
G1 X106.626 Y120.556 E.63615
G1 X106.626 Y121.091 E.01681
G1 X120.409 Y134.874 E.61238
G1 X119.875 Y134.874 E.01678
G1 X106.626 Y121.625 E.58865
G1 X106.626 Y122.159 E.01678
G1 X119.341 Y134.874 E.56492
G1 X118.806 Y134.874 E.01681
G1 X106.626 Y122.694 E.54115
G1 X106.626 Y123.228 E.01678
G1 X118.272 Y134.874 E.51743
G1 X117.738 Y134.874 E.01678
G1 X106.626 Y123.762 E.4937
G1 X106.626 Y124.297 E.01681
G1 X117.203 Y134.874 E.46993
G1 X116.669 Y134.874 E.01678
G1 X106.626 Y124.831 E.44621
G1 X106.626 Y125.365 E.01678
G1 X116.135 Y134.874 E.42248
G1 X115.6 Y134.874 E.01681
G1 X106.626 Y125.9 E.39871
G1 X106.626 Y126.434 E.01678
G1 X115.066 Y134.874 E.37499
G1 X114.532 Y134.874 E.01678
M73 P15 R31
G1 X106.626 Y126.968 E.35126
G1 X106.626 Y127.503 E.01681
G1 X113.997 Y134.874 E.32749
G1 X113.463 Y134.874 E.01678
G1 X106.626 Y128.037 E.30377
G1 X106.626 Y128.571 E.01678
G1 X112.929 Y134.874 E.28004
G1 X112.394 Y134.874 E.01681
G1 X106.626 Y129.106 E.25627
G1 X106.626 Y129.64 E.01678
G1 X111.86 Y134.874 E.23255
M73 Q15 S31
G1 X111.326 Y134.874 E.01678
G1 X106.626 Y130.174 E.20882
G1 X106.626 Y130.709 E.01681
G1 X110.791 Y134.874 E.18505
G1 X110.257 Y134.874 E.01678
G1 X106.626 Y131.243 E.16132
G1 X106.626 Y131.777 E.01678
G1 X109.723 Y134.874 E.1376
G1 X109.188 Y134.874 E.01681
G1 X106.626 Y132.312 E.11383
G1 X106.626 Y132.846 E.01678
G1 X108.654 Y134.874 E.0901
G1 X108.12 Y134.874 E.01678
G1 X106.626 Y133.38 E.06638
G1 X106.626 Y133.915 E.01681
G1 X107.585 Y134.874 E.04261
G1 X107.051 Y134.874 E.01678
G1 X106.457 Y134.279 E.02641
M204 S1000
; stop printing object Relay Mount id:0 copy 0
M106 S84.15
;LAYER_CHANGE
;Z:0.5
;HEIGHT:0.3
;BEFORE_LAYER_CHANGE
G92 E0.0
;0.5


;WIPE_START
G1 F8640
G1 X107.051 Y134.874 E-.19413
G1 X107.585 Y134.874 E-.1233
G1 X106.626 Y133.915 E-.31316
G1 X106.626 Y133.38 E-.12353
G1 X106.767 Y133.521 E-.04588
;WIPE_END
G1 Z.6 F720
;AFTER_LAYER_CHANGE
;0.5
M104 S210 ; set temperature
G1 X103.123 Y133.521 F10800
G1 Z.5 F720
G1 E.8 F2100
;TYPE:Skirt/Brim
;WIDTH:0.42
G1 F2700
G1 X103.123 Y74 E2.64004
G1 X103.515 Y72.693 E.06052
G1 X104.56 Y71.817 E.06048
G1 X105.5 Y71.623 E.04257
G1 X144.5 Y71.623 E1.72984
G1 X145.807 Y72.015 E.06052
G1 X146.683 Y73.06 E.06048
G1 X146.877 Y74 E.04257
G1 X146.877 Y136 E2.75
G1 X146.485 Y137.307 E.06052
G1 X145.44 Y138.183 E.06048
G1 X144.5 Y138.377 E.04257
G1 X105.5 Y138.377 E1.72984
G1 X104.193 Y137.985 E.06052
G1 X103.317 Y136.94 E.06048
G1 X103.123 Y136 E.04257
G1 X103.123 Y133.581 E.10729
; printing object Relay Mount id:0 copy 0
;WIPE_START
G1 F8640
G1 X103.123 Y130.116 E-.8
;WIPE_END
G1 Z.9 F720
G1 X143.714 Y135.214 F10800
G1 Z.5 F720
G1 E.8 F2100
M204 S800
;TYPE:Perimeter
;WIDTH:0.5
G1 F3000
G1 X106.286 Y135.214 E2.03357
G1 X106.286 Y74.786 E3.28322
G1 X143.714 Y74.786 E2.03357
G1 X143.714 Y135.154 E3.27996
M204 S1000
G1 X144.2 Y135.7 F10800
M204 S800
;TYPE:External perimeter
;WIDTH:0.6
G1 F2099.997

G1 X143.6 Y135.7 E.04008
G1 X106.4 Y135.7 E2.48516
G1 X105.8 Y135.7 E.04008
G1 X105.8 Y135.1 E.04008
G1 X105.8 Y74.9 E4.02168
G1 X105.8 Y74.3 E.04008
G1 X106.4 Y74.3 E.04008
G1 X143.6 Y74.3 E2.48516
G1 X144.2 Y74.3 E.04008
G1 X144.2 Y74.9 E.04008
G1 X144.2 Y135.04 E4.01767
G1 X144.2 Y135.64 E.04008

M204 S1000
G1 X143.823 Y135.568 F10800
;WIPE_START
G1 F8640
G1 X140.735 Y135.645 E-.8
;WIPE_END
G1 Z.9 F720
G1 X106.796 Y75.213 F10800
G1 Z.5 F720
M73 P15 R30
G1 E.8 F2100
;TYPE:Solid infill
;WIDTH:0.605691
G1 F4800
M73 P16 R30
G1 X106.748 Y75.165 E.00458
G1 X106.683 Y75.183 E.00455
G1 X106.665 Y75.248 E.00455
G1 X106.713 Y75.296 E.00458
G1 X106.778 Y75.278 E.00455
;WIDTH:0.5
G1 X107.474 Y75.178 E.0382
G1 X106.605 Y76.052 E.06696
;WIDTH:0.45219
G1 X106.533 Y76.13 E.00513
;WIDTH:0.404381
G1 X106.462 Y76.111 E.00312
G1 X106.481 Y76.182 E.00312
G1 X106.522 Y76.171 E.0018
;WIDTH:0.5
G1 X106.678 Y76.59 E.02429
G1 X108.09 Y75.178 E.1085
